;FLAVOR:Marlin
;TIME:5549
;Filament used: 3.42728m
;Layer height: 0.16
;MINX:126.62
;MINY:125.199
;MINZ:0.36
;MAXX:203.377
;MAXY:174.8
;MAXZ:35.13
;Generated with Cura_SteamEngine 4.3.0
M140 S90
M105
M190 S90
M82 ;absolute extrusion mode
; start_gcode
M117 Start Clean        ; Indicate nozzle clean in progress on LCD
;
M104 S200 
M109 S200 
M109 R200 
;
M107                    ; Turn layer fan off
G21                     ; Set to metric [change to G20 if you want Imperial]
G90                     ; Force coordinates to be absolute relative to the origin
G28                     ; Home X/Y/Z axis
;
G1 X3 Y1 Z15 F9000      ; Move safe Z height to shear strings
G0 X1 Y1 Z0.2 F9000     ; Move in 1mm from edge and up [z] 0.2mm
G92 E0                  ; Set extruder to [0] zero
G1 X100 E12 F500        ; Extrude 30mm filiment along X axis 100mm long to prime and clean the nozzle
G92 E0                  ; Reset extruder to [0] zero end of cleaning run
G1 E-1 F500             ; Retract filiment by 1 mm to reduce string effect
G1 X180 F4000           ; quick wipe away from the filament line / purge
M117 End Clean          ; Indicate nozzle clean in progress on LCD
;
M117 Printing...
; Begin printing with sliced GCode after here
;
G92 E0
G92 E0
G1 F2400 E-6.8
;LAYER_COUNT:212
;LAYER:-7
M107
M204 S500
M205 X8 Y8
G0 F7200 X131.234 Y129.658 Z0.36
;TYPE:SUPPORT-INTERFACE
G1 F2400 E0
G1 F1350 X131.93 Y129.012 E0.1137
G1 X132.069 Y128.893 E0.13561
G1 X132.76 Y128.339 E0.24166
G1 X132.899 Y128.235 E0.26244
G1 X133.614 Y127.742 E0.36643
G1 X133.798 Y127.626 E0.39248
G1 X134.554 Y127.183 E0.49739
G1 X134.696 Y127.106 E0.51674
G1 X135.641 Y126.647 E0.64253
G1 X136.491 Y126.304 E0.75228
G1 X136.664 Y126.242 E0.77428
G1 X137.502 Y125.973 E0.87966
G1 X137.666 Y125.927 E0.90006
G1 X138.538 Y125.715 E1.00751
G1 X138.7 Y125.682 E1.02731
G1 X139.593 Y125.534 E1.13569
G1 X139.77 Y125.511 E1.15706
G1 X140.664 Y125.428 E1.26457
G1 X140.806 Y125.421 E1.28159
G1 X141.547 Y125.4 E1.37035
G1 X158.462 Y125.401 E3.39569
G1 X159.586 Y125.446 E3.53038
G1 X160.503 Y125.548 E3.64086
G1 X160.678 Y125.573 E3.66203
G1 X161.567 Y125.737 E3.77027
G1 X161.69 Y125.765 E3.78537
G1 X162.584 Y125.999 E3.89602
G1 X162.759 Y126.051 E3.91788
G1 X163.26 Y126.223 E3.98131
G1 X163.906 Y126.399 E4.06148
G1 X164.583 Y126.494 E4.14333
G1 X165.265 Y126.502 E4.225
G1 X165.945 Y126.424 E4.30695
G1 X166.631 Y126.253 E4.3916
G1 X167.52 Y125.967 E4.50342
G1 X167.66 Y125.928 E4.52082
G1 X168.538 Y125.715 E4.629
G1 X168.7 Y125.682 E4.6488
G1 X169.593 Y125.534 E4.75718
G1 X169.77 Y125.511 E4.77855
G1 X170.664 Y125.428 E4.88606
G1 X170.806 Y125.421 E4.90308
G1 X171.547 Y125.4 E4.99184
G1 X188.462 Y125.401 E7.01718
G1 X189.586 Y125.446 E7.15188
G1 X190.503 Y125.548 E7.26235
G1 X190.678 Y125.573 E7.28352
G1 X191.567 Y125.737 E7.39176
G1 X191.69 Y125.765 E7.40686
G1 X192.584 Y125.999 E7.51751
G1 X192.747 Y126.048 E7.53789
G1 X193.589 Y126.335 E7.64441
G1 X193.755 Y126.398 E7.66567
G1 X194.558 Y126.739 E7.77013
G1 X194.747 Y126.827 E7.79509
G1 X195.658 Y127.301 E7.91805
G1 X196.437 Y127.776 E8.0273
G1 X196.588 Y127.876 E8.04898
G1 X197.302 Y128.387 E8.15411
G1 X197.45 Y128.5 E8.17641
G1 X198.141 Y129.076 E8.28412
G1 X198.254 Y129.177 E8.30227
G1 X198.903 Y129.802 E8.41016
G1 X199.023 Y129.927 E8.4309
G1 X199.626 Y130.598 E8.53892
G1 X199.722 Y130.714 E8.55695
G1 X200.272 Y131.426 E8.66468
G1 X200.385 Y131.585 E8.68803
G1 X200.875 Y132.323 E8.7941
G1 X200.951 Y132.449 E8.81172
G1 X201.397 Y133.243 E8.92076
G1 X201.475 Y133.393 E8.94101
G1 X201.858 Y134.208 E9.04883
G1 X201.918 Y134.351 E9.0674
G1 X202.247 Y135.21 E9.17754
G1 X202.299 Y135.36 E9.19655
G1 X202.554 Y136.21 E9.3028
G1 X202.6 Y136.383 E9.32424
G1 X202.799 Y137.269 E9.43297
G1 X202.824 Y137.408 E9.44988
G1 X202.952 Y138.275 E9.55482
G1 X202.976 Y138.504 E9.58239
G1 X203.059 Y139.985 E9.75999
G1 X203.176 Y159.827 E12.13585
G1 X203.146 Y160.79 E12.25121
G1 X203.136 Y160.938 E12.26897
G1 X203.042 Y161.836 E12.37708
G1 X203.02 Y161.998 E12.39666
G1 X202.859 Y162.896 E12.50589
G1 X202.827 Y163.045 E12.52414
G1 X202.606 Y163.914 E12.6315
G1 X202.553 Y164.094 E12.65397
G1 X202.274 Y164.928 E12.75927
G1 X202.213 Y165.09 E12.78
G1 X201.877 Y165.896 E12.88456
G1 X201.79 Y166.084 E12.90936
G1 X201.321 Y167.001 E13.03269
G1 X200.843 Y167.796 E13.14376
G1 X200.755 Y167.93 E13.16295
G1 X200.136 Y168.798 E13.2906
G1 X199.469 Y169.601 E13.4156
G1 X198.765 Y170.342 E13.53798
G1 X198.08 Y170.978 E13.6499
G1 X197.932 Y171.105 E13.67325
G1 X197.239 Y171.661 E13.77963
G1 X197.1 Y171.765 E13.80042
G1 X196.385 Y172.258 E13.90441
G1 X196.201 Y172.374 E13.93045
G1 X195.445 Y172.817 E14.03537
G1 X195.305 Y172.893 E14.05445
G1 X194.475 Y173.301 E14.16519
G1 X193.503 Y173.698 E14.2909
G1 X193.34 Y173.756 E14.31162
G1 X192.497 Y174.027 E14.41764
G1 X192.333 Y174.073 E14.43804
G1 X191.461 Y174.285 E14.54549
G1 X191.299 Y174.318 E14.56529
G1 X190.406 Y174.466 E14.67367
G1 X190.229 Y174.489 E14.69504
G1 X189.335 Y174.572 E14.80254
G1 X189.193 Y174.579 E14.81957
G1 X188.452 Y174.6 E14.90833
G1 X171.535 Y174.599 E16.93391
G1 X170.411 Y174.554 E17.0686
G1 X169.494 Y174.452 E17.17908
G1 X169.319 Y174.427 E17.20024
G1 X168.43 Y174.263 E17.30849
G1 X168.307 Y174.235 E17.32359
G1 X167.413 Y174.001 E17.43424
G1 X167.266 Y173.957 E17.45261
G1 X166.734 Y173.776 E17.5199
G1 X166.086 Y173.601 E17.60027
G1 X165.41 Y173.507 E17.68199
G1 X164.727 Y173.5 E17.76377
G1 X164.048 Y173.578 E17.84561
G1 X163.37 Y173.747 E17.92927
G1 X162.48 Y174.033 E18.04121
G1 X162.339 Y174.072 E18.05872
G1 X161.461 Y174.285 E18.1669
G1 X161.299 Y174.318 E18.1867
G1 X160.406 Y174.466 E18.29508
G1 X160.229 Y174.489 E18.31645
G1 X159.335 Y174.572 E18.42396
G1 X159.193 Y174.579 E18.44098
G1 X158.452 Y174.6 E18.52974
G1 X141.535 Y174.599 E20.55532
G1 X140.411 Y174.554 E20.69001
G1 X139.494 Y174.452 E20.80049
G1 X139.319 Y174.427 E20.82166
G1 X138.43 Y174.263 E20.9299
G1 X138.307 Y174.235 E20.945
G1 X137.413 Y174.001 E21.05565
G1 X137.25 Y173.952 E21.07603
G1 X136.408 Y173.665 E21.18255
G1 X136.242 Y173.602 E21.20381
G1 X135.439 Y173.261 E21.30827
G1 X135.25 Y173.173 E21.33323
G1 X134.339 Y172.699 E21.45619
G1 X133.56 Y172.224 E21.56544
G1 X133.409 Y172.124 E21.58712
G1 X132.695 Y171.613 E21.69225
G1 X132.547 Y171.5 E21.71455
G1 X131.747 Y170.827 E21.83973
G1 X131.075 Y170.184 E21.95109
G1 X130.431 Y169.49 E22.06445
G1 X130.314 Y169.353 E22.08602
G1 X129.76 Y168.662 E22.19207
G1 X129.656 Y168.523 E22.21286
G1 X129.163 Y167.808 E22.31685
G1 X129.047 Y167.624 E22.34289
G1 X128.604 Y166.868 E22.44781
G1 X128.527 Y166.726 E22.46715
G1 X128.068 Y165.781 E22.59294
G1 X127.72 Y164.92 E22.70414
G1 X127.663 Y164.759 E22.72459
G1 X127.391 Y163.911 E22.83122
G1 X127.345 Y163.747 E22.85161
G1 X127.134 Y162.875 E22.95904
G1 X127.101 Y162.714 E22.97871
G1 X126.954 Y161.824 E23.08672
G1 X126.932 Y161.652 E23.10749
G1 X126.849 Y160.753 E23.21559
G1 X126.842 Y160.616 E23.23201
G1 X126.821 Y159.882 E23.31993
G1 X126.822 Y140.131 E25.68485
G1 X126.858 Y139.125 E25.80538
G1 X126.868 Y138.99 E25.82159
G1 X126.97 Y138.072 E25.93219
G1 X126.995 Y137.897 E25.95335
G1 X127.157 Y137.019 E26.06026
G1 X127.187 Y136.885 E26.0767
G1 X127.42 Y135.993 E26.18709
G1 X127.465 Y135.843 E26.20584
G1 X127.761 Y134.974 E26.31576
G1 X127.814 Y134.834 E26.33368
G1 X128.165 Y134.01 E26.44092
G1 X128.244 Y133.842 E26.46315
G1 X128.65 Y133.051 E26.56961
G1 X128.732 Y132.903 E26.58987
G1 X129.197 Y132.142 E26.69665
G1 X129.299 Y131.988 E26.71877
G1 X129.803 Y131.282 E26.82264
G1 X129.922 Y131.129 E26.84584
G1 X130.592 Y130.329 E26.97079
G1 X131.234 Y129.658 E27.08198
G0 F7200 X131.2 Y129.693
G1 F1350 X131.2 Y170.303 E31.94448
G0 F7200 X132.8 Y171.688
G1 F1350 X132.8 Y128.309 E37.13853
G0 F7200 X134.4 Y127.273
G1 F1350 X134.4 Y172.73 E42.58139
G0 F7200 X136 Y173.499
G1 F1350 X136 Y126.502 E48.20865
G0 F7200 X137.6 Y125.945
G1 F1350 X137.6 Y174.049 E53.96845
G0 F7200 X139.2 Y174.405
G1 F1350 X139.2 Y125.599 E59.81231
G0 F7200 X140.8 Y125.421
G1 F1350 X140.8 Y174.569 E65.69712
G0 F7200 X142.4 Y174.599
G1 F1350 X142.4 Y125.401 E71.58792
G0 F7200 X144 Y125.401
G1 F1350 X144 Y174.599 E77.47871
G0 F7200 X145.6 Y174.599
G1 F1350 X145.6 Y125.401 E83.36951
G0 F7200 X147.2 Y125.401
G1 F1350 X147.2 Y174.599 E89.2603
G0 F7200 X148.8 Y174.599
G1 F1350 X148.8 Y125.401 E95.1511
G0 F7200 X150.4 Y125.401
G1 F1350 X150.4 Y174.599 E101.04189
G0 F7200 X152 Y174.599
G1 F1350 X152 Y125.401 E106.93269
G0 F7200 X153.6 Y125.401
G1 F1350 X153.6 Y174.599 E112.82349
G0 F7200 X155.2 Y174.599
G1 F1350 X155.2 Y125.401 E118.71428
G0 F7200 X156.8 Y125.401
G1 F1350 X156.8 Y174.599 E124.60508
G0 F7200 X158.4 Y174.599
G1 F1350 X158.4 Y125.401 E130.49587
G0 F7200 X160 Y125.493
G1 F1350 X160 Y174.511 E136.36512
G0 F7200 X161.6 Y174.252
G1 F1350 X161.6 Y125.745 E142.17317
G0 F7200 X163.2 Y126.203
G1 F1350 X163.2 Y173.802 E147.87251
G0 F7200 X164.8 Y173.5
G1 F1350 X164.8 Y126.497 E153.50048
G0 F7200 X166.4 Y126.31
G1 F1350 X166.4 Y173.685 E159.173
G0 F7200 X168 Y174.154
G1 F1350 X168 Y125.845 E164.95735
G0 F7200 X169.6 Y125.533
G1 F1350 X169.6 Y174.463 E170.81606
G0 F7200 X171.2 Y174.585
G1 F1350 X171.2 Y125.409 E176.70422
G0 F7200 X172.8 Y125.401
G1 F1350 X172.8 Y174.599 E182.59501
G0 F7200 X174.4 Y174.599
G1 F1350 X174.4 Y125.401 E188.48581
G0 F7200 X176 Y125.401
G1 F1350 X176 Y174.599 E194.3766
G0 F7200 X177.6 Y174.599
G1 F1350 X177.6 Y125.401 E200.2674
G0 F7200 X179.2 Y125.401
G1 F1350 X179.2 Y174.599 E206.1582
G0 F7200 X180.8 Y174.599
G1 F1350 X180.8 Y125.401 E212.04899
G0 F7200 X182.4 Y125.401
G1 F1350 X182.4 Y174.599 E217.93979
G0 F7200 X184 Y174.599
G1 F1350 X184 Y125.401 E223.83058
G0 F7200 X185.6 Y125.401
G1 F1350 X185.6 Y174.599 E229.72138
G0 F7200 X187.2 Y174.599
G1 F1350 X187.2 Y125.401 E235.61217
G0 F7200 X188.8 Y125.415
G1 F1350 X188.8 Y174.591 E241.50034
G0 F7200 X190.4 Y174.467
G1 F1350 X190.4 Y125.537 E247.35904
G0 F7200 X192 Y125.847
G1 F1350 X192 Y174.154 E253.14315
G0 F7200 X193.6 Y173.659
G1 F1350 X193.6 Y126.34 E258.80896
G0 F7200 X195.2 Y127.063
G1 F1350 X195.2 Y172.945 E264.30271
G0 F7200 X196.8 Y171.972
G1 F1350 X196.8 Y128.028 E269.56441
G0 F7200 X198.4 Y129.318
G1 F1350 X198.4 Y170.681 E274.51707
G0 F7200 X200 Y168.962
G1 F1350 X200 Y131.074 E279.05365
G0 F7200 X201.6 Y133.659
G1 F1350 X201.6 Y166.456 E282.98065
G0 F7200 X129.6 Y168.441
G1 F1350 X129.6 Y131.566 E287.39593
G0 F7200 X128 Y134.397
M104 S200
G1 F1350 X128 Y165.612 E291.1335
G0 F600 X128 Y165.612 Z0.6
G0 F7200 X128.513 Y166.697
;TIME_ELAPSED:117.927490
;LAYER:-6
M140 S90
;TYPE:SUPPORT
G1 F1350 X134.703 Y172.887 E291.83228
G1 X134.338 Y172.698 E291.8651
G1 X133.559 Y172.222 E291.93797
G1 X133.409 Y172.123 E291.95231
G1 X132.694 Y171.612 E292.02247
G1 X132.547 Y171.498 E292.03732
G1 X131.747 Y170.826 E292.12072
G1 X131.074 Y170.183 E292.19502
G1 X130.431 Y169.489 E292.27054
G1 X130.314 Y169.352 E292.28492
G1 X129.76 Y168.661 E292.35562
G1 X129.655 Y168.522 E292.36952
G1 X129.162 Y167.807 E292.43885
G1 X129.046 Y167.623 E292.45621
G1 X128.604 Y166.867 E292.52611
G1 X128.527 Y166.725 E292.53901
G0 F7200 X134.703 Y172.887
G1 F1350 X135.249 Y173.171 E292.58814
G1 X135.438 Y173.26 E292.60481
G1 X136.241 Y173.601 E292.67445
G1 X136.407 Y173.664 E292.68862
G1 X137.146 Y173.916 E292.75095
G1 X127.509 Y164.278 E293.83891
G1 X127.39 Y163.91 E293.86979
G1 X127.344 Y163.746 E293.88338
G1 X127.134 Y162.874 E293.95498
G1 X127.101 Y162.713 E293.9681
G1 X127.05 Y162.405 E293.99302
G1 X139.014 Y174.369 E295.34362
G1 X139.318 Y174.426 E295.36831
G1 X139.493 Y174.451 E295.38242
G1 X140.41 Y174.552 E295.45606
G1 X140.619 Y174.56 E295.47276
G1 X126.852 Y160.793 E297.0269
G1 X126.849 Y160.752 E297.03018
G1 X126.842 Y160.615 E297.04113
G1 X126.821 Y159.881 E297.09974
G1 X126.821 Y159.347 E297.14237
G1 X142.071 Y174.598 E298.86398
G1 X143.485 Y174.598 E298.97685
G1 X126.821 Y157.933 E300.85808
G1 X126.821 Y156.519 E300.97095
G1 X144.899 Y174.598 E303.01181
G1 X146.313 Y174.598 E303.12468
G1 X126.821 Y155.105 E305.32516
G1 X126.821 Y153.691 E305.43803
G1 X147.728 Y174.598 E307.7982
G1 X149.142 Y174.598 E307.91107
G1 X126.821 Y152.276 E310.43091
G1 X126.821 Y150.862 E310.54378
G1 X150.557 Y174.598 E313.22331
G1 X151.971 Y174.598 E313.33618
G1 X126.821 Y149.449 E316.17527
G1 X126.821 Y148.034 E316.28823
G1 X153.385 Y174.598 E319.287
G1 X154.799 Y174.598 E319.39987
G1 X126.821 Y146.62 E322.55827
G1 X126.821 Y145.206 E322.67114
G1 X156.214 Y174.598 E325.98922
G1 X157.628 Y174.598 E326.10209
G1 X126.821 Y143.792 E329.5798
G1 X126.821 Y142.378 E329.69267
G1 X159.026 Y174.582 E333.32819
G1 X159.193 Y174.578 E333.34152
G1 X159.334 Y174.571 E333.35279
G1 X160.228 Y174.488 E333.42446
G1 X160.332 Y174.474 E333.43284
G1 X126.821 Y140.963 E337.21585
G1 X126.822 Y140.13 E337.28234
G1 X126.841 Y139.569 E337.32715
G1 X161.537 Y174.265 E341.24394
G1 X162.338 Y174.071 E341.30972
G1 X162.479 Y174.032 E341.3214
G1 X162.66 Y173.973 E341.3366
G1 X126.948 Y138.262 E345.36802
G1 X126.969 Y138.071 E345.38336
G1 X126.994 Y137.895 E345.39755
G1 X127.15 Y137.05 E345.46614
G1 X163.751 Y173.65 E349.59792
G1 X164.048 Y173.577 E349.62233
G1 X164.726 Y173.499 E349.67681
G1 X165.016 Y173.502 E349.69996
G1 X127.439 Y135.925 E353.94198
G1 X127.464 Y135.842 E353.9489
G1 X127.76 Y134.973 E354.02218
G1 X127.799 Y134.87 E354.03097
G1 X166.692 Y173.763 E358.42155
G1 X166.733 Y173.775 E358.42496
G1 X167.266 Y173.956 E358.46989
G1 X167.413 Y174 E358.48214
G1 X168.306 Y174.233 E358.55581
G1 X168.43 Y174.262 E358.56598
G1 X168.644 Y174.301 E358.58334
G1 X128.224 Y133.881 E363.1463
G1 X128.243 Y133.841 E363.14983
G1 X128.65 Y133.049 E363.22091
G1 X128.705 Y132.948 E363.23009
G1 X170.298 Y174.54 E367.92541
G1 X170.411 Y174.553 E367.93449
G1 X171.534 Y174.598 E368.02421
G1 X171.769 Y174.598 E368.04297
G1 X129.242 Y132.071 E372.84378
G1 X129.298 Y131.987 E372.85184
G1 X129.802 Y131.28 E372.92115
G1 X129.83 Y131.244 E372.92479
G1 X173.183 Y174.598 E377.81891
G1 X174.598 Y174.598 E377.93186
G1 X130.471 Y130.471 E382.9133
G1 X130.591 Y130.329 E382.92814
G1 X131.154 Y129.739 E382.99323
G1 X176.012 Y174.598 E388.05725
G1 X177.427 Y174.598 E388.1702
G1 X131.883 Y129.054 E393.3116
G1 X131.929 Y129.011 E393.31663
G1 X132.067 Y128.892 E393.33117
G1 X132.661 Y128.418 E393.39184
G1 X178.841 Y174.598 E398.60503
G1 X180.255 Y174.598 E398.7179
G1 X133.486 Y127.83 E403.99754
G1 X133.613 Y127.741 E404.00992
G1 X133.797 Y127.625 E404.02728
G1 X134.365 Y127.294 E404.07976
G1 X181.669 Y174.598 E409.41984
G1 X183.084 Y174.599 E409.53279
G1 X135.298 Y126.813 E414.92729
G1 X135.64 Y126.647 E414.95763
G1 X136.286 Y126.386 E415.01325
G1 X184.499 Y174.599 E420.45595
G1 X185.913 Y174.599 E420.56882
G1 X137.338 Y126.024 E426.05239
G1 X137.501 Y125.972 E426.06605
G1 X137.665 Y125.927 E426.07962
G1 X138.462 Y125.734 E426.14508
G1 X187.327 Y174.599 E431.66138
G1 X188.451 Y174.6 E431.75111
G1 X188.733 Y174.591 E431.77363
G1 X139.667 Y125.524 E437.31268
G1 X139.768 Y125.51 E437.32082
G1 X140.663 Y125.428 E437.39256
G1 X140.804 Y125.42 E437.40383
G1 X140.973 Y125.416 E437.41733
G1 X190.06 Y174.504 E442.95875
G1 X190.227 Y174.489 E442.97213
G1 X190.405 Y174.465 E442.98647
G1 X191.289 Y174.318 E443.058
G1 X142.371 Y125.401 E448.58023
G1 X143.785 Y125.401 E448.6931
G1 X192.429 Y174.045 E454.18446
G1 X192.496 Y174.026 E454.19002
G1 X193.339 Y173.756 E454.26068
G1 X193.498 Y173.699 E454.27416
G1 X145.2 Y125.401 E459.72646
G1 X146.614 Y125.401 E459.83933
G1 X194.5 Y173.287 E465.24511
G1 X195.304 Y172.893 E465.31658
G1 X195.444 Y172.816 E465.32934
G1 X148.028 Y125.401 E470.68201
G1 X149.442 Y125.401 E470.79488
G1 X196.331 Y172.29 E476.08812
G1 X196.384 Y172.257 E476.0931
G1 X197.098 Y171.764 E476.16236
G1 X197.168 Y171.712 E476.16932
G1 X150.856 Y125.401 E481.39736
G1 X152.271 Y125.401 E481.51032
G1 X197.954 Y171.084 E486.66741
G1 X198.079 Y170.977 E486.68054
G1 X198.692 Y170.408 E486.74731
G1 X153.685 Y125.401 E491.82809
G1 X155.099 Y125.401 E491.94096
G1 X199.386 Y169.687 E496.9404
G1 X199.467 Y169.6 E496.94989
G1 X200.033 Y168.92 E497.02051
G1 X156.513 Y125.401 E501.93337
