;START_OF_HEADER
;HEADER_VERSION:0.1
;FLAVOR:Griffin
;GENERATOR.NAME:Cura_SteamEngine
;GENERATOR.VERSION:4.1.0
;GENERATOR.BUILD_DATE:2019-05-28
;TARGET_MACHINE.NAME:Ultimaker S5
;EXTRUDER_TRAIN.0.INITIAL_TEMPERATURE:250
;EXTRUDER_TRAIN.0.MATERIAL.VOLUME_USED:3635
;EXTRUDER_TRAIN.0.MATERIAL.GUID:506c9f0d-e3aa-4bd4-b2d2-23e2425b1aa9
;EXTRUDER_TRAIN.0.NOZZLE.DIAMETER:0.4
;EXTRUDER_TRAIN.0.NOZZLE.NAME:AA 0.4
;BUILD_PLATE.TYPE:glass
;BUILD_PLATE.INITIAL_TEMPERATURE:80
;BUILD_VOLUME.TEMPERATURE:35
;PRINT.TIME:3523
;PRINT.GROUPS:1
;PRINT.SIZE.MIN.X:128.04
;PRINT.SIZE.MIN.Y:103.07
;PRINT.SIZE.MIN.Z:0.2
;PRINT.SIZE.MAX.X:179.96
;PRINT.SIZE.MAX.Y:136.93
;PRINT.SIZE.MAX.Z:20.1
;END_OF_HEADER
;Generated with Cura_SteamEngine 4.1.0
T0
M82 ;absolute extrusion mode

G92 E0
M109 S250
G280 S1
G0 Z20.001
G1 F1500 E-6.5
;LAYER_COUNT:190
;LAYER:0
M107
M204 S625
M205 X10 Y10
G0 F2610 X179.005 Y133.387 Z0.2
M204 S500
M205 X5 Y5
;TYPE:SKIRT
G1 F1500 E0
G1 F1740 X178.595 Y134.007 E0.00979
G1 X177.93 Y134.777 E0.02318
G1 X177.807 Y134.9 E0.02547
G1 X177.253 Y135.398 E0.03528
G1 X176.649 Y135.833 E0.04508
G1 X176.002 Y136.2 E0.05488
G1 X175.32 Y136.497 E0.06467
G1 X174.609 Y136.718 E0.07448
G1 X173.879 Y136.862 E0.08427
G1 X172.907 Y136.93 E0.0971
G1 X157.093 Y136.93 E0.30533
G1 X156.35 Y136.89 E0.31513
G1 X155.615 Y136.771 E0.32494
G1 X154.897 Y136.573 E0.33474
G1 X154.205 Y136.3 E0.34454
G1 X154.008 Y136.197 E0.34746
G1 X154.002 Y136.2 E0.34755
G1 X153.32 Y136.497 E0.35735
G1 X152.609 Y136.718 E0.36715
G1 X151.879 Y136.862 E0.37695
G1 X150.907 Y136.93 E0.38978
G1 X135.093 Y136.93 E0.59801
G1 X134.35 Y136.89 E0.60781
G1 X133.615 Y136.771 E0.61761
G1 X132.897 Y136.573 E0.62742
G1 X132.205 Y136.3 E0.63721
G1 X131.546 Y135.954 E0.64701
G1 X130.928 Y135.539 E0.65681
G1 X130.193 Y134.9 E0.66964
G1 X130.07 Y134.777 E0.67193
G1 X129.572 Y134.223 E0.68174
G1 X129.137 Y133.619 E0.69154
G1 X128.77 Y132.972 E0.70133
G1 X128.473 Y132.29 E0.71113
G1 X128.252 Y131.579 E0.72093
G1 X128.108 Y130.849 E0.73073
G1 X128.04 Y129.877 E0.74356
G1 X128.04 Y110.123 E1.00367
G1 X128.08 Y109.38 E1.01347
G1 X128.199 Y108.645 E1.02327
G1 X128.397 Y107.927 E1.03308
G1 X128.67 Y107.235 E1.04287
G1 X129.016 Y106.576 E1.05267
G1 X129.431 Y105.958 E1.06247
G1 X130.07 Y105.223 E1.0753
G1 X130.193 Y105.1 E1.07759
G1 X130.747 Y104.602 E1.0874
G1 X131.351 Y104.167 E1.0972
G1 X131.998 Y103.8 E1.10699
G1 X132.68 Y103.503 E1.11679
G1 X133.391 Y103.282 E1.12659
G1 X134.121 Y103.138 E1.13639
G1 X135.093 Y103.07 E1.14922
G1 X150.907 Y103.07 E1.35745
G1 X151.65 Y103.11 E1.36725
G1 X152.385 Y103.229 E1.37705
G1 X153.103 Y103.427 E1.38686
G1 X153.795 Y103.7 E1.39665
G1 X153.992 Y103.803 E1.39958
G1 X153.998 Y103.8 E1.39967
G1 X154.68 Y103.503 E1.40946
G1 X155.391 Y103.282 E1.41927
G1 X156.121 Y103.138 E1.42906
G1 X157.093 Y103.07 E1.44189
G1 X172.907 Y103.07 E1.65012
G1 X173.65 Y103.11 E1.65992
G1 X174.385 Y103.229 E1.66972
G1 X175.103 Y103.427 E1.67953
G1 X175.795 Y103.7 E1.68933
G1 X176.454 Y104.046 E1.69913
G1 X177.072 Y104.461 E1.70893
G1 X177.642 Y104.94 E1.71873
G1 X178.157 Y105.477 E1.72853
G1 X178.612 Y106.066 E1.73833
G1 X179.001 Y106.7 E1.74812
G1 X179.32 Y107.373 E1.75793
G1 X179.565 Y108.076 E1.76773
G1 X179.733 Y108.801 E1.77753
G1 X179.822 Y109.54 E1.78733
G1 X179.837 Y109.957 E1.79283
G1 X179.96 Y129.834 E2.05456
G1 X179.924 Y130.578 E2.06437
G1 X179.81 Y131.313 E2.07416
G1 X179.616 Y132.032 E2.08397
G1 X179.347 Y132.726 E2.09377
G1 X179.005 Y133.387 E2.10357
M204 S625
M205 X10 Y10
G0 F2610 X178.586 Y133.269
M204 S500
M205 X5 Y5
G1 F1740 X178.177 Y133.863 E2.11307
G1 X177.633 Y134.48 E2.1239
G1 X177.51 Y134.603 E2.12619
G1 X176.973 Y135.084 E2.13568
G1 X176.385 Y135.503 E2.14519
G1 X175.755 Y135.854 E2.15468
G1 X175.09 Y136.133 E2.16418
G1 X174.398 Y136.337 E2.17368
G1 X173.688 Y136.463 E2.18317
G1 X172.907 Y136.51 E2.19348
G1 X157.093 Y136.51 E2.40171
G1 X156.373 Y136.47 E2.4112
G1 X155.661 Y136.351 E2.42071
G1 X154.967 Y136.153 E2.43021
G1 X154.3 Y135.88 E2.4397
G1 X154.001 Y135.717 E2.44418
G1 X153.755 Y135.854 E2.44789
G1 X153.09 Y136.133 E2.45739
G1 X152.398 Y136.337 E2.46689
G1 X151.688 Y136.463 E2.47638
G1 X150.907 Y136.51 E2.48668
G1 X135.093 Y136.51 E2.69491
G1 X134.373 Y136.47 E2.70441
G1 X133.661 Y136.351 E2.71391
G1 X132.967 Y136.153 E2.72341
G1 X132.3 Y135.88 E2.7329
G1 X131.666 Y135.535 E2.74241
G1 X131.075 Y135.122 E2.7519
G1 X130.49 Y134.603 E2.7622
G1 X130.367 Y134.48 E2.76449
G1 X129.886 Y133.943 E2.77398
G1 X129.467 Y133.355 E2.78349
G1 X129.116 Y132.725 E2.79299
G1 X128.837 Y132.06 E2.80248
G1 X128.633 Y131.368 E2.81198
G1 X128.507 Y130.658 E2.82148
G1 X128.46 Y129.877 E2.83178
G1 X128.46 Y110.123 E3.09189
G1 X128.5 Y109.403 E3.10138
G1 X128.619 Y108.691 E3.11089
G1 X128.817 Y107.997 E3.12039
G1 X129.09 Y107.33 E3.12988
G1 X129.435 Y106.696 E3.13938
G1 X129.848 Y106.105 E3.14888
G1 X130.367 Y105.52 E3.15918
G1 X130.49 Y105.397 E3.16147
G1 X131.027 Y104.916 E3.17096
G1 X131.615 Y104.497 E3.18047
G1 X132.245 Y104.146 E3.18996
G1 X132.91 Y103.867 E3.19946
G1 X133.602 Y103.663 E3.20896
G1 X134.312 Y103.537 E3.21845
G1 X135.093 Y103.49 E3.22875
G1 X150.907 Y103.49 E3.43698
G1 X151.627 Y103.53 E3.44648
G1 X152.339 Y103.649 E3.45598
G1 X153.033 Y103.847 E3.46549
G1 X153.7 Y104.12 E3.47498
G1 X153.999 Y104.283 E3.47946
G1 X154.245 Y104.146 E3.48317
G1 X154.91 Y103.867 E3.49266
G1 X155.602 Y103.663 E3.50216
G1 X156.312 Y103.537 E3.51166
G1 X157.093 Y103.49 E3.52196
G1 X172.907 Y103.49 E3.73019
G1 X173.627 Y103.53 E3.73968
G1 X174.339 Y103.649 E3.74919
G1 X175.033 Y103.847 E3.75869
G1 X175.7 Y104.12 E3.76818
G1 X176.334 Y104.465 E3.77769
G1 X176.925 Y104.878 E3.78718
G1 X177.467 Y105.354 E3.79668
G1 X177.953 Y105.887 E3.80618
G1 X178.377 Y106.471 E3.81568
G1 X178.734 Y107.098 E3.82518
G1 X179.02 Y107.76 E3.83468
G1 X179.23 Y108.45 E3.84417
G1 X179.362 Y109.159 E3.85367
G1 X179.417 Y109.96 E3.86424
G1 X179.54 Y129.837 E4.12597
G1 X179.504 Y130.557 E4.13547
G1 X179.389 Y131.269 E4.14496
G1 X179.196 Y131.964 E4.15446
G1 X178.927 Y132.634 E4.16397
G1 X178.586 Y133.269 E4.17346
M204 S625
M205 X10 Y10
G0 F2610 X178.167 Y133.148
M204 S500
M205 X5 Y5
G1 F1740 X177.759 Y133.714 E4.18264
G1 X177.336 Y134.183 E4.19096
G1 X177.213 Y134.306 E4.19325
G1 X176.692 Y134.771 E4.20245
G1 X176.122 Y135.172 E4.21162
G1 X175.509 Y135.506 E4.22081
G1 X174.862 Y135.768 E4.23001
G1 X174.19 Y135.953 E4.23918
G1 X173.501 Y136.061 E4.24837
G1 X172.907 Y136.09 E4.2562
G1 X157.093 Y136.09 E4.46443
G1 X156.396 Y136.05 E4.47362
G1 X155.709 Y135.931 E4.4828
G1 X155.04 Y135.733 E4.49199
G1 X154.397 Y135.461 E4.50118
G1 X154.003 Y135.237 E4.50715
G1 X153.509 Y135.506 E4.51455
G1 X152.862 Y135.768 E4.52375
G1 X152.19 Y135.953 E4.53292
G1 X151.501 Y136.061 E4.54211
G1 X150.907 Y136.09 E4.54994
G1 X135.093 Y136.09 E4.75817
G1 X134.396 Y136.05 E4.76736
G1 X133.709 Y135.931 E4.77654
G1 X133.04 Y135.733 E4.78573
G1 X132.397 Y135.461 E4.79492
G1 X131.791 Y135.117 E4.80409
G1 X131.227 Y134.705 E4.81329
G1 X130.787 Y134.306 E4.82111
G1 X130.664 Y134.183 E4.8234
G1 X130.199 Y133.662 E4.8326
G1 X129.798 Y133.092 E4.84178
G1 X129.464 Y132.479 E4.85097
G1 X129.202 Y131.832 E4.86016
G1 X129.017 Y131.16 E4.86934
G1 X128.909 Y130.471 E4.87852
G1 X128.88 Y129.877 E4.88635
G1 X128.88 Y110.123 E5.14646
G1 X128.92 Y109.426 E5.15565
G1 X129.039 Y108.739 E5.16483
G1 X129.237 Y108.07 E5.17402
G1 X129.509 Y107.427 E5.18321
G1 X129.853 Y106.821 E5.19239
G1 X130.265 Y106.257 E5.20158
G1 X130.664 Y105.817 E5.2094
G1 X130.787 Y105.694 E5.2117
G1 X131.308 Y105.229 E5.22089
G1 X131.878 Y104.828 E5.23007
G1 X132.491 Y104.494 E5.23926
G1 X133.138 Y104.232 E5.24845
G1 X133.81 Y104.047 E5.25763
G1 X134.499 Y103.939 E5.26681
G1 X135.093 Y103.91 E5.27464
G1 X150.907 Y103.91 E5.48287
G1 X151.604 Y103.95 E5.49206
G1 X152.291 Y104.069 E5.50124
G1 X152.96 Y104.267 E5.51043
G1 X153.603 Y104.539 E5.51962
G1 X153.997 Y104.763 E5.52559
G1 X154.491 Y104.494 E5.533
G1 X155.138 Y104.232 E5.54219
G1 X155.81 Y104.047 E5.55137
G1 X156.499 Y103.939 E5.56055
G1 X157.093 Y103.91 E5.56838
G1 X172.907 Y103.91 E5.77661
G1 X173.604 Y103.95 E5.7858
G1 X174.291 Y104.069 E5.79498
G1 X174.96 Y104.267 E5.80417
G1 X175.603 Y104.539 E5.81336
G1 X176.209 Y104.883 E5.82254
G1 X176.773 Y105.295 E5.83174
G1 X177.286 Y105.768 E5.84092
G1 X177.741 Y106.296 E5.8501
G1 X178.133 Y106.873 E5.85929
G1 X178.456 Y107.492 E5.86848
G1 X178.707 Y108.143 E5.87767
G1 X178.881 Y108.819 E5.88686
G1 X178.977 Y109.51 E5.89604
G1 X178.997 Y109.962 E5.902
G1 X179.12 Y129.839 E6.16374
G1 X179.084 Y130.536 E6.17293
G1 X178.969 Y131.224 E6.18211
G1 X178.776 Y131.895 E6.1913
G1 X178.508 Y132.539 E6.20049
G1 X178.167 Y133.148 E6.20968
M204 S625
M205 X10 Y10
G0 F2610 X177.748 Y133.021
M204 S500
M205 X5 Y5
G1 F1740 X177.342 Y133.558 E6.21854
G1 X177.039 Y133.886 E6.22442
G1 X176.916 Y134.009 E6.22671
G1 X176.413 Y134.456 E6.23557
G1 X175.86 Y134.84 E6.24444
G1 X175.265 Y135.156 E6.25331
G1 X174.638 Y135.399 E6.26216
G1 X173.986 Y135.566 E6.27103
G1 X173.318 Y135.655 E6.2799
G1 X172.907 Y135.67 E6.28532
G1 X157.093 Y135.67 E6.49354
G1 X156.421 Y135.63 E6.50241
G1 X155.758 Y135.511 E6.51128
G1 X155.115 Y135.314 E6.52013
G1 X154.499 Y135.042 E6.529
G1 X153.997 Y134.745 E6.53668
G1 X153.86 Y134.84 E6.53888
G1 X153.265 Y135.156 E6.54775
G1 X152.638 Y135.399 E6.5566
G1 X151.986 Y135.566 E6.56546
G1 X151.318 Y135.655 E6.57434
G1 X150.907 Y135.67 E6.57975
G1 X135.093 Y135.67 E6.78798
G1 X134.421 Y135.63 E6.79684
G1 X133.758 Y135.511 E6.80571
G1 X133.115 Y135.314 E6.81457
G1 X132.499 Y135.042 E6.82344
G1 X131.92 Y134.699 E6.8323
G1 X131.385 Y134.29 E6.84116
G1 X131.084 Y134.009 E6.84659
G1 X130.961 Y133.886 E6.84888
G1 X130.514 Y133.383 E6.85774
G1 X130.13 Y132.83 E6.8666
G1 X129.814 Y132.235 E6.87547
G1 X129.571 Y131.608 E6.88433
G1 X129.404 Y130.956 E6.89319
G1 X129.315 Y130.288 E6.90206
G1 X129.3 Y129.877 E6.90748
G1 X129.3 Y110.123 E7.16759
G1 X129.34 Y109.451 E7.17645
G1 X129.459 Y108.788 E7.18532
G1 X129.656 Y108.145 E7.19418
G1 X129.928 Y107.529 E7.20304
G1 X130.271 Y106.95 E7.2119
G1 X130.68 Y106.415 E7.22077
G1 X130.961 Y106.114 E7.22619
G1 X131.084 Y105.991 E7.22848
G1 X131.587 Y105.544 E7.23734
G1 X132.14 Y105.16 E7.24621
G1 X132.735 Y104.844 E7.25508
G1 X133.362 Y104.601 E7.26394
G1 X134.014 Y104.434 E7.2728
G1 X134.682 Y104.345 E7.28167
G1 X135.093 Y104.33 E7.28709
G1 X150.907 Y104.33 E7.49532
G1 X151.579 Y104.37 E7.50418
G1 X152.242 Y104.489 E7.51305
G1 X152.885 Y104.686 E7.5219
G1 X153.501 Y104.958 E7.53077
G1 X154.003 Y105.255 E7.53845
G1 X154.14 Y105.16 E7.54065
G1 X154.735 Y104.844 E7.54952
G1 X155.362 Y104.601 E7.55837
G1 X156.014 Y104.434 E7.56723
G1 X156.682 Y104.345 E7.57611
G1 X157.093 Y104.33 E7.58152
G1 X172.907 Y104.33 E7.78975
G1 X173.579 Y104.37 E7.79862
G1 X174.242 Y104.489 E7.80749
G1 X174.885 Y104.686 E7.81634
G1 X175.501 Y104.958 E7.82521
G1 X176.08 Y105.301 E7.83407
G1 X176.615 Y105.71 E7.84294
G1 X177.097 Y106.18 E7.8518
G1 X177.52 Y106.704 E7.86067
G1 X177.879 Y107.274 E7.86954
G1 X178.167 Y107.882 E7.8784
G1 X178.381 Y108.52 E7.88726
G1 X178.517 Y109.18 E7.89613
G1 X178.577 Y109.965 E7.9065
G1 X178.7 Y129.842 E8.16823
G1 X178.664 Y130.514 E8.17709
G1 X178.549 Y131.177 E8.18595
G1 X178.356 Y131.822 E8.19482
G1 X178.088 Y132.44 E8.20369
G1 X177.748 Y133.021 E8.21255
M204 S625
M205 X10 Y10
G0 F2610 X177.668 Y132.337
M204 S500
M205 X5 Y5
G1 F1740 X177.33 Y132.889 E8.22107
G1 X176.742 Y133.589 E8.23311
G1 X176.619 Y133.712 E8.2354
G1 X176.134 Y134.141 E8.24393
G1 X175.599 Y134.507 E8.25246
G1 X175.024 Y134.804 E8.26098
G1 X174.416 Y135.028 E8.26952
G1 X173.785 Y135.176 E8.27805
G1 X172.907 Y135.25 E8.28965
G1 X157.093 Y135.25 E8.49788
G1 X156.446 Y135.21 E8.50642
G1 X155.81 Y135.091 E8.51494
G1 X155.193 Y134.894 E8.52346
G1 X154.604 Y134.623 E8.532
G1 X154.054 Y134.281 E8.54053
G1 X153.998 Y134.234 E8.54149
G1 X153.599 Y134.507 E8.54786
G1 X153.024 Y134.804 E8.55638
G1 X152.416 Y135.028 E8.56491
G1 X151.785 Y135.176 E8.57345
G1 X150.907 Y135.25 E8.58505
G1 X135.093 Y135.25 E8.79328
G1 X134.446 Y135.21 E8.80181
G1 X133.81 Y135.091 E8.81033
G1 X133.193 Y134.894 E8.81886
G1 X132.604 Y134.623 E8.8274
G1 X132.054 Y134.281 E8.83592
G1 X131.381 Y133.712 E8.84753
G1 X131.258 Y133.589 E8.84982
G1 X130.829 Y133.104 E8.85835
G1 X130.463 Y132.569 E8.86688
G1 X130.166 Y131.994 E8.8754
G1 X129.942 Y131.386 E8.88393
G1 X129.794 Y130.755 E8.89247
G1 X129.72 Y129.877 E8.90407
G1 X129.72 Y110.123 E9.16418
G1 X129.76 Y109.476 E9.17271
G1 X129.879 Y108.84 E9.18123
G1 X130.076 Y108.223 E9.18976
G1 X130.347 Y107.634 E9.1983
G1 X130.689 Y107.084 E9.20683
G1 X131.258 Y106.411 E9.21843
G1 X131.381 Y106.288 E9.22072
G1 X131.866 Y105.859 E9.22925
G1 X132.401 Y105.493 E9.23778
G1 X132.976 Y105.196 E9.24631
G1 X133.584 Y104.972 E9.25484
G1 X134.215 Y104.824 E9.26337
G1 X135.093 Y104.75 E9.27497
G1 X150.907 Y104.75 E9.4832
G1 X151.554 Y104.79 E9.49174
G1 X152.19 Y104.909 E9.50026
G1 X152.807 Y105.106 E9.50879
G1 X153.396 Y105.377 E9.51732
G1 X153.946 Y105.719 E9.52585
G1 X154.003 Y105.765 E9.52682
G1 X154.401 Y105.493 E9.53316
G1 X154.976 Y105.196 E9.54169
G1 X155.584 Y104.972 E9.55022
G1 X156.215 Y104.824 E9.55875
G1 X157.093 Y104.75 E9.57035
G1 X172.907 Y104.75 E9.77858
G1 X173.554 Y104.79 E9.78712
G1 X174.19 Y104.909 E9.79564
G1 X174.807 Y105.106 E9.80417
G1 X175.396 Y105.377 E9.8127
G1 X175.946 Y105.719 E9.82123
G1 X176.45 Y106.126 E9.82976
G1 X176.9 Y106.592 E9.83829
G1 X177.289 Y107.109 E9.84681
G1 X177.612 Y107.671 E9.85535
G1 X177.863 Y108.268 E9.86387
G1 X178.039 Y108.892 E9.87241
G1 X178.136 Y109.532 E9.88093
G1 X178.157 Y109.968 E9.88668
G1 X178.28 Y129.845 E10.14841
G1 X178.244 Y130.491 E10.15693
G1 X178.129 Y131.129 E10.16547
G1 X177.936 Y131.747 E10.17399
G1 X177.668 Y132.337 E10.18253
M204 S625
M205 X10 Y10
G0 F2610 X177.248 Y132.229
M204 S500
M205 X5 Y5
G1 F1740 X176.912 Y132.751 E10.1907
G1 X176.445 Y133.292 E10.20011
G1 X176.322 Y133.415 E10.2024
G1 X175.856 Y133.825 E10.21058
G1 X175.34 Y134.172 E10.21876
G1 X174.784 Y134.45 E10.22695
G1 X174.198 Y134.654 E10.23512
G1 X173.59 Y134.782 E10.2433
G1 X172.907 Y134.83 E10.25232
G1 X157.093 Y134.83 E10.46054
G1 X156.473 Y134.79 E10.46873
G1 X155.863 Y134.671 E10.47691
G1 X155.274 Y134.474 E10.48509
G1 X154.715 Y134.204 E10.49326
G1 X154.195 Y133.864 E10.50144
G1 X154.002 Y133.696 E10.50481
G1 X153.856 Y133.825 E10.50738
G1 X153.34 Y134.172 E10.51556
G1 X152.784 Y134.45 E10.52375
G1 X152.198 Y134.654 E10.53192
G1 X151.59 Y134.782 E10.5401
G1 X150.907 Y134.83 E10.54912
G1 X135.093 Y134.83 E10.75735
G1 X134.473 Y134.79 E10.76553
G1 X133.863 Y134.671 E10.77371
G1 X133.274 Y134.474 E10.78189
G1 X132.715 Y134.204 E10.79006
G1 X132.195 Y133.864 E10.79824
G1 X131.678 Y133.415 E10.80726
G1 X131.555 Y133.292 E10.80955
G1 X131.145 Y132.826 E10.81772
G1 X130.798 Y132.31 E10.82591
G1 X130.52 Y131.754 E10.8341
G1 X130.316 Y131.168 E10.84227
G1 X130.188 Y130.56 E10.85045
G1 X130.14 Y129.877 E10.85946
G1 X130.14 Y110.123 E11.11957
G1 X130.18 Y109.503 E11.12775
G1 X130.299 Y108.893 E11.13594
G1 X130.496 Y108.304 E11.14411
G1 X130.766 Y107.745 E11.15229
G1 X131.106 Y107.225 E11.16047
G1 X131.555 Y106.708 E11.16948
G1 X131.678 Y106.585 E11.17177
G1 X132.144 Y106.175 E11.17995
G1 X132.66 Y105.828 E11.18814
G1 X133.216 Y105.55 E11.19632
G1 X133.802 Y105.346 E11.20449
G1 X134.41 Y105.218 E11.21267
G1 X135.093 Y105.17 E11.22169
G1 X150.907 Y105.17 E11.42992
G1 X151.527 Y105.21 E11.4381
G1 X152.137 Y105.329 E11.44628
G1 X152.726 Y105.526 E11.45446
G1 X153.285 Y105.796 E11.46263
G1 X153.805 Y106.136 E11.47081
G1 X153.999 Y106.302 E11.47418
G1 X154.144 Y106.175 E11.47671
G1 X154.66 Y105.828 E11.4849
G1 X155.216 Y105.55 E11.49309
G1 X155.802 Y105.346 E11.50126
G1 X156.41 Y105.218 E11.50944
G1 X157.093 Y105.17 E11.51845
G1 X172.907 Y105.17 E11.72668
G1 X173.527 Y105.21 E11.73486
G1 X174.137 Y105.329 E11.74305
G1 X174.726 Y105.526 E11.75123
G1 X175.285 Y105.796 E11.7594
G1 X175.805 Y106.136 E11.76758
G1 X176.277 Y106.54 E11.77576
G1 X176.694 Y107.002 E11.78396
G1 X177.047 Y107.512 E11.79212
G1 X177.332 Y108.064 E11.8003
