;START_OF_HEADER
;HEADER_VERSION:0.1
;FLAVOR:Griffin
;GENERATOR.NAME:Cura_SteamEngine
;GENERATOR.VERSION:4.1.0
;GENERATOR.BUILD_DATE:2019-05-28
;TARGET_MACHINE.NAME:Ultimaker S5
;EXTRUDER_TRAIN.0.INITIAL_TEMPERATURE:250
;EXTRUDER_TRAIN.0.MATERIAL.VOLUME_USED:5394
;EXTRUDER_TRAIN.0.MATERIAL.GUID:506c9f0d-e3aa-4bd4-b2d2-23e2425b1aa9
;EXTRUDER_TRAIN.0.NOZZLE.DIAMETER:0.4
;EXTRUDER_TRAIN.0.NOZZLE.NAME:AA 0.4
;BUILD_PLATE.TYPE:glass
;BUILD_PLATE.INITIAL_TEMPERATURE:80
;BUILD_VOLUME.TEMPERATURE:35
;PRINT.TIME:4685
;PRINT.GROUPS:1
;PRINT.SIZE.MIN.X:127.49
;PRINT.SIZE.MIN.Y:103.003
;PRINT.SIZE.MIN.Z:0.2
;PRINT.SIZE.MAX.X:180.576
;PRINT.SIZE.MAX.Y:136.93
;PRINT.SIZE.MAX.Z:34
;END_OF_HEADER
;Generated with Cura_SteamEngine 4.1.0
T0
M82 ;absolute extrusion mode

G92 E0
M109 S250
G280 S1
G0 Z20.001
G1 F1500 E-6.5
;LAYER_COUNT:339
;LAYER:0
M107
M204 S625
M205 X10 Y10
G0 F2610 X179.6 Y133.479 Z0.2
M204 S500
M205 X5 Y5
;TYPE:SKIRT
G1 F1500 E0
G1 F1740 X179.185 Y134.098 E0.00981
G1 X178.706 Y134.668 E0.01962
G1 X178.17 Y135.183 E0.0294
G1 X177.58 Y135.638 E0.03921
G1 X176.946 Y136.027 E0.04901
G1 X176.273 Y136.346 E0.05882
G1 X175.57 Y136.59 E0.06861
G1 X174.845 Y136.758 E0.07841
G1 X174.106 Y136.848 E0.08822
G1 X173.646 Y136.863 E0.09428
G1 X156.487 Y136.863 E0.32022
G1 X155.744 Y136.823 E0.33001
G1 X155.009 Y136.704 E0.33982
G1 X154.291 Y136.506 E0.34962
G1 X154.125 Y136.441 E0.35197
G1 X153.502 Y136.657 E0.36065
G1 X152.777 Y136.825 E0.37045
G1 X152.038 Y136.915 E0.38026
G1 X151.578 Y136.93 E0.38632
G1 X134.42 Y136.93 E0.61224
G1 X133.677 Y136.89 E0.62204
G1 X132.942 Y136.771 E0.63184
G1 X132.224 Y136.573 E0.64165
G1 X131.532 Y136.3 E0.65145
G1 X130.873 Y135.954 E0.66125
G1 X130.255 Y135.539 E0.67105
G1 X129.685 Y135.06 E0.68085
G1 X129.17 Y134.523 E0.69065
G1 X128.715 Y133.934 E0.70045
G1 X128.326 Y133.3 E0.71024
G1 X128.007 Y132.627 E0.72005
G1 X127.762 Y131.924 E0.72985
G1 X127.594 Y131.199 E0.73965
G1 X127.505 Y130.46 E0.74945
G1 X127.49 Y130 E0.75551
G1 X127.491 Y110.167 E1.01666
G1 X127.49 Y110.076 E1.01786
G1 X127.522 Y109.333 E1.02765
G1 X127.634 Y108.597 E1.03746
G1 X127.823 Y107.877 E1.04726
G1 X128.089 Y107.182 E1.05706
G1 X128.428 Y106.519 E1.06686
G1 X128.836 Y105.896 E1.07667
G1 X129.308 Y105.321 E1.08646
G1 X129.839 Y104.8 E1.09626
G1 X130.423 Y104.338 E1.10606
G1 X131.054 Y103.943 E1.11587
G1 X131.723 Y103.616 E1.12567
G1 X132.423 Y103.364 E1.13547
G1 X133.146 Y103.188 E1.14526
G1 X133.884 Y103.091 E1.15507
G1 X134.42 Y103.07 E1.16213
G1 X151.577 Y103.07 E1.38804
G1 X152.32 Y103.11 E1.39784
G1 X153.055 Y103.229 E1.40764
G1 X153.773 Y103.427 E1.41745
G1 X153.943 Y103.494 E1.41986
G1 X154.49 Y103.297 E1.42751
G1 X155.213 Y103.121 E1.43731
G1 X155.951 Y103.024 E1.44711
G1 X156.487 Y103.003 E1.45417
G1 X173.645 Y103.003 E1.6801
G1 X174.388 Y103.043 E1.6899
G1 X175.123 Y103.162 E1.6997
G1 X175.841 Y103.36 E1.70951
G1 X176.533 Y103.633 E1.7193
G1 X177.192 Y103.979 E1.7291
G1 X177.81 Y104.394 E1.73891
G1 X178.38 Y104.873 E1.74871
G1 X178.895 Y105.41 E1.75851
G1 X179.35 Y105.999 E1.76831
G1 X179.739 Y106.633 E1.7781
G1 X180.058 Y107.306 E1.78791
G1 X180.303 Y108.009 E1.79771
G1 X180.471 Y108.734 E1.80751
G1 X180.56 Y109.473 E1.81731
G1 X180.575 Y109.933 E1.82337
G1 X180.576 Y129.933 E2.08672
G1 X180.536 Y130.676 E2.09652
G1 X180.417 Y131.411 E2.10632
G1 X180.219 Y132.128 E2.11612
G1 X179.946 Y132.82 E2.12591
G1 X179.6 Y133.479 E2.13571
M204 S625
M205 X10 Y10
G0 F2610 X179.181 Y133.359
M204 S500
M205 X5 Y5
G1 F1740 X178.768 Y133.951 E2.14522
G1 X178.292 Y134.493 E2.15471
G1 X177.759 Y134.979 E2.16421
G1 X177.176 Y135.403 E2.1737
G1 X176.549 Y135.76 E2.1832
G1 X175.886 Y136.045 E2.19271
G1 X175.196 Y136.256 E2.20221
G1 X174.487 Y136.388 E2.2117
G1 X173.646 Y136.443 E2.2228
G1 X156.487 Y136.443 E2.44874
G1 X155.767 Y136.403 E2.45824
G1 X155.055 Y136.284 E2.46774
G1 X154.361 Y136.086 E2.47724
G1 X154.114 Y135.985 E2.48076
G1 X153.818 Y136.112 E2.485
G1 X153.128 Y136.323 E2.4945
G1 X152.419 Y136.455 E2.504
G1 X151.578 Y136.51 E2.51509
G1 X134.42 Y136.51 E2.74102
G1 X133.7 Y136.47 E2.75051
G1 X132.988 Y136.351 E2.76002
G1 X132.294 Y136.153 E2.76952
G1 X131.627 Y135.88 E2.77901
G1 X130.993 Y135.535 E2.78852
G1 X130.402 Y135.122 E2.79801
G1 X129.86 Y134.646 E2.80751
G1 X129.374 Y134.113 E2.81701
G1 X128.95 Y133.529 E2.82651
G1 X128.593 Y132.902 E2.83601
G1 X128.307 Y132.24 E2.8455
G1 X128.097 Y131.55 E2.855
G1 X127.965 Y130.841 E2.8645
G1 X127.91 Y130 E2.8756
G1 X127.911 Y110.163 E3.1368
G1 X127.91 Y110.072 E3.13799
G1 X127.942 Y109.351 E3.1475
G1 X128.054 Y108.638 E3.157
G1 X128.244 Y107.942 E3.1665
G1 X128.509 Y107.271 E3.176
G1 X128.848 Y106.634 E3.1855
G1 X129.254 Y106.038 E3.195
G1 X129.724 Y105.491 E3.20449
G1 X130.252 Y104.999 E3.214
G1 X130.831 Y104.569 E3.22349
G1 X131.454 Y104.205 E3.23299
G1 X132.113 Y103.912 E3.24249
G1 X132.801 Y103.695 E3.25199
G1 X133.508 Y103.554 E3.26148
G1 X134.42 Y103.49 E3.27352
G1 X151.577 Y103.49 E3.49943
G1 X152.297 Y103.53 E3.50893
G1 X153.009 Y103.649 E3.51843
G1 X153.703 Y103.847 E3.52794
G1 X153.949 Y103.948 E3.53144
G1 X154.18 Y103.845 E3.53477
G1 X154.868 Y103.628 E3.54427
G1 X155.575 Y103.487 E3.55376
G1 X156.487 Y103.423 E3.5658
G1 X173.645 Y103.423 E3.79172
G1 X174.365 Y103.463 E3.80122
G1 X175.077 Y103.582 E3.81072
G1 X175.771 Y103.78 E3.82023
G1 X176.438 Y104.053 E3.82972
G1 X177.072 Y104.398 E3.83922
G1 X177.663 Y104.811 E3.84872
G1 X178.205 Y105.287 E3.85821
G1 X178.691 Y105.82 E3.86771
G1 X179.115 Y106.404 E3.87721
G1 X179.472 Y107.031 E3.88671
G1 X179.758 Y107.693 E3.89621
G1 X179.968 Y108.383 E3.90571
G1 X180.1 Y109.092 E3.9152
G1 X180.155 Y109.933 E3.9263
G1 X180.156 Y129.933 E4.18965
G1 X180.116 Y130.653 E4.19914
G1 X179.997 Y131.364 E4.20864
G1 X179.799 Y132.058 E4.21814
G1 X179.526 Y132.726 E4.22764
G1 X179.181 Y133.359 E4.23713
M204 S625
M205 X10 Y10
G0 F2610 X178.763 Y133.235
M204 S500
M205 X5 Y5
G1 F1740 X178.352 Y133.799 E4.24632
G1 X177.879 Y134.312 E4.25551
G1 X177.35 Y134.767 E4.2647
G1 X176.773 Y135.159 E4.27388
G1 X176.155 Y135.482 E4.28306
G1 X175.503 Y135.733 E4.29226
G1 X174.828 Y135.907 E4.30144
G1 X174.137 Y136.003 E4.31063
G1 X173.646 Y136.023 E4.3171
G1 X156.487 Y136.023 E4.54304
G1 X155.79 Y135.983 E4.55223
G1 X155.103 Y135.864 E4.56141
G1 X154.434 Y135.666 E4.5706
G1 X154.118 Y135.533 E4.57511
G1 X154.087 Y135.549 E4.57557
G1 X153.435 Y135.8 E4.58477
G1 X152.76 Y135.974 E4.59395
G1 X152.069 Y136.07 E4.60314
G1 X151.578 Y136.09 E4.60961
G1 X134.42 Y136.09 E4.83553
G1 X133.723 Y136.05 E4.84473
G1 X133.036 Y135.931 E4.85391
G1 X132.367 Y135.733 E4.86309
G1 X131.724 Y135.461 E4.87229
G1 X131.118 Y135.117 E4.88146
G1 X130.554 Y134.705 E4.89066
G1 X130.041 Y134.232 E4.89985
G1 X129.586 Y133.704 E4.90902
G1 X129.194 Y133.127 E4.91821
G1 X128.871 Y132.508 E4.9274
G1 X128.62 Y131.857 E4.93659
G1 X128.446 Y131.181 E4.94578
G1 X128.35 Y130.49 E4.95497
G1 X128.33 Y130 E4.96142
G1 X128.331 Y110.158 E5.22269
G1 X128.33 Y110.067 E5.22389
G1 X128.363 Y109.37 E5.23308
G1 X128.474 Y108.681 E5.24227
G1 X128.664 Y108.01 E5.25145
G1 X128.93 Y107.365 E5.26064
G1 X129.267 Y106.754 E5.26982
G1 X129.672 Y106.186 E5.27901
G1 X130.14 Y105.668 E5.2882
G1 X130.663 Y105.207 E5.29738
G1 X131.236 Y104.809 E5.30657
G1 X131.851 Y104.478 E5.31576
G1 X132.499 Y104.221 E5.32494
G1 X133.173 Y104.039 E5.33414
G1 X133.863 Y103.936 E5.34332
G1 X134.42 Y103.91 E5.35066
G1 X151.577 Y103.91 E5.57658
G1 X152.274 Y103.95 E5.58577
G1 X152.961 Y104.069 E5.59495
G1 X153.63 Y104.267 E5.60414
G1 X153.945 Y104.4 E5.60864
G1 X154.566 Y104.154 E5.61744
G1 X155.24 Y103.972 E5.62663
G1 X155.93 Y103.869 E5.63581
G1 X156.487 Y103.843 E5.64316
G1 X173.645 Y103.843 E5.86908
G1 X174.342 Y103.883 E5.87828
G1 X175.029 Y104.002 E5.88746
G1 X175.698 Y104.2 E5.89664
G1 X176.341 Y104.472 E5.90584
G1 X176.947 Y104.816 E5.91501
G1 X177.511 Y105.228 E5.92421
G1 X178.024 Y105.701 E5.9334
G1 X178.479 Y106.229 E5.94257
G1 X178.871 Y106.806 E5.95176
G1 X179.194 Y107.425 E5.96095
G1 X179.445 Y108.076 E5.97014
G1 X179.619 Y108.752 E5.97933
G1 X179.715 Y109.443 E5.98852
G1 X179.735 Y109.933 E5.99497
G1 X179.736 Y129.933 E6.25832
G1 X179.696 Y130.629 E6.2675
G1 X179.577 Y131.317 E6.2767
G1 X179.38 Y131.986 E6.28588
G1 X179.107 Y132.628 E6.29506
G1 X178.763 Y133.235 E6.30425
M204 S625
M205 X10 Y10
G0 F2610 X178.345 Y133.106
M204 S500
M205 X5 Y5
G1 F1740 X177.936 Y133.641 E6.31312
G1 X177.466 Y134.123 E6.32198
G1 X176.943 Y134.546 E6.33084
G1 X176.373 Y134.904 E6.3397
G1 X175.764 Y135.193 E6.34858
G1 X175.126 Y135.406 E6.35744
G1 X174.467 Y135.543 E6.3663
G1 X173.646 Y135.603 E6.37714
G1 X156.487 Y135.603 E6.60308
G1 X155.815 Y135.563 E6.61194
G1 X155.152 Y135.444 E6.62081
G1 X154.509 Y135.247 E6.62967
G1 X154.102 Y135.067 E6.63553
G1 X153.696 Y135.26 E6.64144
G1 X153.058 Y135.473 E6.6503
G1 X152.399 Y135.61 E6.65916
G1 X151.578 Y135.67 E6.67
G1 X134.42 Y135.67 E6.89593
G1 X133.748 Y135.63 E6.90479
G1 X133.085 Y135.511 E6.91366
G1 X132.442 Y135.314 E6.92252
G1 X131.826 Y135.042 E6.93138
G1 X131.247 Y134.699 E6.94025
G1 X130.712 Y134.29 E6.94911
G1 X130.23 Y133.82 E6.95798
G1 X129.807 Y133.296 E6.96685
G1 X129.448 Y132.726 E6.97572
G1 X129.16 Y132.118 E6.98457
G1 X128.946 Y131.48 E6.99343
G1 X128.81 Y130.82 E7.00231
G1 X128.75 Y130 E7.01313
G1 X128.751 Y110.153 E7.27447
G1 X128.75 Y110.062 E7.27567
G1 X128.783 Y109.39 E7.28452
G1 X128.895 Y108.726 E7.29339
G1 X129.085 Y108.08 E7.30226
G1 X129.35 Y107.461 E7.31112
G1 X129.687 Y106.878 E7.31999
G1 X130.09 Y106.339 E7.32885
G1 X130.554 Y105.852 E7.33771
G1 X131.073 Y105.423 E7.34658
G1 X131.639 Y105.059 E7.35544
G1 X132.245 Y104.764 E7.36431
G1 X132.88 Y104.543 E7.37316
G1 X133.538 Y104.399 E7.38203
G1 X134.42 Y104.33 E7.39368
G1 X151.577 Y104.33 E7.6196
G1 X152.249 Y104.37 E7.62846
G1 X152.912 Y104.489 E7.63733
G1 X153.555 Y104.686 E7.64618
G1 X153.964 Y104.867 E7.65207
G1 X154.312 Y104.697 E7.65717
G1 X154.947 Y104.476 E7.66603
G1 X155.605 Y104.332 E7.6749
G1 X156.487 Y104.263 E7.68654
G1 X173.645 Y104.263 E7.91247
G1 X174.317 Y104.303 E7.92133
G1 X174.98 Y104.422 E7.9302
G1 X175.623 Y104.619 E7.93906
G1 X176.239 Y104.891 E7.94793
G1 X176.818 Y105.234 E7.95679
G1 X177.353 Y105.643 E7.96565
G1 X177.835 Y106.113 E7.97452
G1 X178.258 Y106.637 E7.98339
G1 X178.617 Y107.207 E7.99226
G1 X178.905 Y107.815 E8.00111
G1 X179.119 Y108.453 E8.00998
G1 X179.255 Y109.113 E8.01885
G1 X179.315 Y109.933 E8.02967
G1 X179.316 Y129.933 E8.29302
G1 X179.276 Y130.605 E8.30189
G1 X179.157 Y131.267 E8.31074
G1 X178.96 Y131.911 E8.31961
G1 X178.688 Y132.527 E8.32848
G1 X178.345 Y133.106 E8.33734
M204 S625
M205 X10 Y10
G0 F2610 X178.269 Y132.421
M204 S500
M205 X5 Y5
G1 F1740 X177.927 Y132.972 E8.34588
G1 X177.52 Y133.476 E8.35441
G1 X177.055 Y133.926 E8.36293
G1 X176.537 Y134.315 E8.37146
G1 X175.975 Y134.638 E8.37999
G1 X175.378 Y134.889 E8.38852
G1 X174.755 Y135.065 E8.39705
G1 X174.114 Y135.162 E8.40558
G1 X173.646 Y135.183 E8.41175
G1 X156.487 Y135.183 E8.63769
G1 X155.84 Y135.143 E8.64623
G1 X155.204 Y135.024 E8.65475
G1 X154.587 Y134.827 E8.66327
G1 X154.091 Y134.599 E8.67046
G1 X153.907 Y134.705 E8.67326
G1 X153.31 Y134.956 E8.68178
G1 X152.687 Y135.132 E8.69031
G1 X152.046 Y135.229 E8.69885
G1 X151.578 Y135.25 E8.70501
G1 X134.42 Y135.25 E8.93094
G1 X133.773 Y135.21 E8.93948
G1 X133.137 Y135.091 E8.948
G1 X132.52 Y134.894 E8.95652
G1 X131.931 Y134.623 E8.96506
G1 X131.381 Y134.281 E8.97359
G1 X130.877 Y133.874 E8.98212
G1 X130.427 Y133.408 E8.99065
G1 X130.038 Y132.891 E8.99917
G1 X129.715 Y132.329 E9.0077
G1 X129.464 Y131.732 E9.01623
G1 X129.288 Y131.108 E9.02477
G1 X129.191 Y130.468 E9.03329
G1 X129.17 Y130 E9.03946
G1 X129.171 Y110.149 E9.30085
G1 X129.17 Y110.058 E9.30204
G1 X129.203 Y109.411 E9.31057
G1 X129.315 Y108.773 E9.3191
G1 X129.505 Y108.154 E9.32763
G1 X129.77 Y107.562 E9.33617
G1 X130.106 Y107.008 E9.3447
G1 X130.507 Y106.5 E9.35322
G1 X130.968 Y106.045 E9.36175
G1 X131.481 Y105.65 E9.37028
G1 X132.039 Y105.321 E9.37881
G1 X132.634 Y105.063 E9.38735
G1 X133.255 Y104.881 E9.39587
G1 X133.895 Y104.776 E9.40441
G1 X134.42 Y104.75 E9.41133
G1 X151.577 Y104.75 E9.63724
G1 X152.224 Y104.79 E9.64578
G1 X152.86 Y104.909 E9.6543
G1 X153.477 Y105.106 E9.66283
G1 X153.971 Y105.333 E9.66998
G1 X154.106 Y105.254 E9.67204
G1 X154.701 Y104.996 E9.68058
G1 X155.322 Y104.814 E9.6891
G1 X155.962 Y104.709 E9.69764
G1 X156.487 Y104.683 E9.70456
G1 X173.645 Y104.683 E9.93049
G1 X174.292 Y104.723 E9.93903
G1 X174.928 Y104.842 E9.94755
G1 X175.545 Y105.039 E9.95607
G1 X176.134 Y105.31 E9.96461
G1 X176.684 Y105.652 E9.97314
G1 X177.188 Y106.059 E9.98167
G1 X177.638 Y106.525 E9.9902
G1 X178.027 Y107.042 E9.99872
G1 X178.35 Y107.604 E10.00725
G1 X178.601 Y108.201 E10.01578
G1 X178.777 Y108.825 E10.02432
G1 X178.874 Y109.465 E10.03284
G1 X178.895 Y109.933 E10.03901
G1 X178.896 Y129.933 E10.30236
G1 X178.856 Y130.579 E10.31088
G1 X178.737 Y131.216 E10.31941
G1 X178.54 Y131.833 E10.32794
G1 X178.269 Y132.421 E10.33647
M204 S625
M205 X10 Y10
G0 F2610 X177.85 Y132.311
M204 S500
M205 X5 Y5
G1 F1740 X177.51 Y132.831 E10.34465
G1 X177.106 Y133.303 E10.35283
G1 X176.645 Y133.719 E10.361
G1 X176.134 Y134.073 E10.36919
G1 X175.582 Y134.358 E10.37737
G1 X174.998 Y134.57 E10.38555
G1 X174.391 Y134.705 E10.39374
G1 X173.646 Y134.763 E10.40358
G1 X156.487 Y134.763 E10.62952
G1 X155.867 Y134.723 E10.6377
G1 X155.257 Y134.604 E10.64588
G1 X154.668 Y134.407 E10.65406
G1 X154.109 Y134.137 E10.66223
G1 X154.089 Y134.124 E10.66255
G1 X154.066 Y134.14 E10.66292
G1 X153.514 Y134.425 E10.6711
G1 X152.93 Y134.637 E10.67928
G1 X152.323 Y134.772 E10.68747
G1 X151.578 Y134.83 E10.6973
G1 X134.42 Y134.83 E10.92323
G1 X133.8 Y134.79 E10.93141
G1 X133.19 Y134.671 E10.9396
G1 X132.601 Y134.474 E10.94777
G1 X132.042 Y134.204 E10.95595
G1 X131.522 Y133.864 E10.96413
G1 X131.05 Y133.46 E10.97231
G1 X130.633 Y132.998 E10.9805
G1 X130.28 Y132.488 E10.98867
G1 X129.995 Y131.936 E10.99685
G1 X129.783 Y131.351 E11.00504
G1 X129.648 Y130.745 E11.01322
G1 X129.59 Y130 E11.02306
G1 X129.591 Y110.144 E11.28451
G1 X129.59 Y110.053 E11.28571
G1 X129.623 Y109.433 E11.29388
G1 X129.736 Y108.822 E11.30207
G1 X129.926 Y108.23 E11.31025
G1 X130.19 Y107.668 E11.31843
G1 X130.525 Y107.144 E11.32662
G1 X130.923 Y106.668 E11.33479
G1 X131.38 Y106.247 E11.34297
G1 X131.887 Y105.887 E11.35116
G1 X132.436 Y105.596 E11.35934
G1 X133.018 Y105.378 E11.36752
G1 X133.623 Y105.236 E11.3757
G1 X134.42 Y105.17 E11.38623
G1 X151.577 Y105.17 E11.61215
G1 X152.197 Y105.21 E11.62033
G1 X152.807 Y105.329 E11.62851
G1 X153.396 Y105.526 E11.63669
G1 X153.955 Y105.796 E11.64486
G1 X153.975 Y105.809 E11.64518
G1 X154.503 Y105.529 E11.65305
G1 X155.085 Y105.311 E11.66123
G1 X155.69 Y105.169 E11.66941
G1 X156.487 Y105.103 E11.67994
G1 X173.645 Y105.103 E11.90587
G1 X174.265 Y105.143 E11.91405
G1 X174.875 Y105.262 E11.92223
G1 X175.464 Y105.459 E11.93041
G1 X176.023 Y105.729 E11.93859
G1 X176.543 Y106.069 E11.94677
G1 X177.015 Y106.473 E11.95495
G1 X177.432 Y106.935 E11.96314
G1 X177.785 Y107.445 E11.97131
G1 X178.07 Y107.997 E11.97949
G1 X178.282 Y108.582 E11.98768
G1 X178.417 Y109.188 E11.99586
G1 X178.475 Y109.933 E12.0057
G1 X178.476 Y129.933 E12.26904
G1 X178.436 Y130.553 E12.27723
G1 X178.317 Y131.163 E12.28541
G1 X178.12 Y131.752 E12.29359
G1 X177.85 Y132.311 E12.30176
M204 S625
M205 X10 Y10
G0 F2610 X177.431 Y132.196
M204 S500
M205 X5 Y5
G1 F1740 X177.093 Y132.684 E12.30958
G1 X176.692 Y133.122 E12.3174
G1 X176.236 Y133.502 E12.32521
G1 X175.734 Y133.818 E12.33302
G1 X175.193 Y134.063 E12.34084
G1 X174.624 Y134.233 E12.34866
G1 X174.038 Y134.326 E12.35648
G1 X173.646 Y134.343 E12.36164
G1 X156.487 Y134.343 E12.58758
G1 X155.895 Y134.303 E12.59539
G1 X155.313 Y134.184 E12.60322
G1 X154.753 Y133.988 E12.61103
G1 X154.224 Y133.718 E12.61885
G1 X154.085 Y133.621 E12.62108
G1 X153.666 Y133.885 E12.6276
G1 X153.125 Y134.13 E12.63542
G1 X152.556 Y134.3 E12.64324
G1 X151.97 Y134.393 E12.65105
G1 X151.578 Y134.41 E12.65622
G1 X134.42 Y134.41 E12.88215
G1 X133.828 Y134.37 E12.88996
G1 X133.246 Y134.251 E12.89778
G1 X132.686 Y134.055 E12.90559
