;FLAVOR:Marlin
;TIME:5524
;Filament used: 3.34972m
;Layer height: 0.16
;MINX:125.199
;MINY:126.144
;MINZ:0.36
;MAXX:174.8
;MAXY:207.855
;MAXZ:30.65
;Generated with Cura_SteamEngine 4.3.0
M140 S90
M105
M190 S90
M82 ;absolute extrusion mode
; start_gcode
M117 Start Clean        ; Indicate nozzle clean in progress on LCD
;
M104 S200 
M109 S200 
M109 R200 
;
M107                    ; Turn layer fan off
G21                     ; Set to metric [change to G20 if you want Imperial]
G90                     ; Force coordinates to be absolute relative to the origin
G28                     ; Home X/Y/Z axis
;
G1 X3 Y1 Z15 F9000      ; Move safe Z height to shear strings
G0 X1 Y1 Z0.2 F9000     ; Move in 1mm from edge and up [z] 0.2mm
G92 E0                  ; Set extruder to [0] zero
G1 X100 E12 F500        ; Extrude 30mm filiment along X axis 100mm long to prime and clean the nozzle
G92 E0                  ; Reset extruder to [0] zero end of cleaning run
G1 E-1 F500             ; Retract filiment by 1 mm to reduce string effect
G1 X180 F4000           ; quick wipe away from the filament line / purge
M117 End Clean          ; Indicate nozzle clean in progress on LCD
;
M117 Printing...
; Begin printing with sliced GCode after here
;
G92 E0
G92 E0
G1 F2400 E-6.8
;LAYER_COUNT:186
;LAYER:-7
M107
M204 S500
M205 X8 Y8
G0 F7200 X129.812 Y130.603 Z0.36
;TYPE:SUPPORT-INTERFACE
G1 F2400 E0
G1 F1350 X130.508 Y129.957 E0.1137
G1 X130.647 Y129.838 E0.13561
G1 X131.338 Y129.284 E0.24166
G1 X131.477 Y129.18 E0.26244
G1 X132.192 Y128.687 E0.36643
G1 X132.376 Y128.571 E0.39248
G1 X133.132 Y128.128 E0.49739
G1 X133.274 Y128.051 E0.51674
G1 X134.219 Y127.592 E0.64253
G1 X135.069 Y127.249 E0.75228
G1 X135.242 Y127.187 E0.77428
G1 X136.08 Y126.918 E0.87966
G1 X136.244 Y126.872 E0.90006
G1 X137.116 Y126.66 E1.00751
G1 X137.278 Y126.627 E1.02731
G1 X138.171 Y126.479 E1.13569
G1 X138.348 Y126.456 E1.15706
G1 X139.242 Y126.373 E1.26457
G1 X139.384 Y126.366 E1.28159
G1 X140.125 Y126.345 E1.37035
G1 X159.886 Y126.346 E3.73646
G1 X161.01 Y126.391 E3.87115
G1 X161.927 Y126.493 E3.98163
G1 X162.102 Y126.518 E4.0028
G1 X162.991 Y126.682 E4.11104
G1 X163.114 Y126.71 E4.12614
G1 X164.008 Y126.944 E4.23679
G1 X164.171 Y126.993 E4.25717
G1 X165.013 Y127.28 E4.36369
G1 X165.179 Y127.343 E4.38495
G1 X165.982 Y127.684 E4.4894
G1 X166.171 Y127.772 E4.51437
G1 X167.082 Y128.246 E4.63733
G1 X167.861 Y128.721 E4.74658
G1 X168.012 Y128.821 E4.76826
G1 X168.726 Y129.332 E4.87339
G1 X168.874 Y129.445 E4.89569
G1 X169.565 Y130.021 E5.0034
G1 X169.678 Y130.122 E5.02155
G1 X170.327 Y130.747 E5.12943
G1 X170.447 Y130.872 E5.15018
G1 X171.05 Y131.543 E5.2582
G1 X171.146 Y131.659 E5.27623
G1 X171.696 Y132.371 E5.38395
G1 X171.809 Y132.53 E5.40731
G1 X172.299 Y133.268 E5.51338
G1 X172.375 Y133.394 E5.531
G1 X172.821 Y134.188 E5.64004
G1 X172.899 Y134.338 E5.66028
G1 X173.282 Y135.153 E5.76811
G1 X173.342 Y135.296 E5.78668
G1 X173.671 Y136.155 E5.89682
G1 X173.723 Y136.305 E5.91583
G1 X173.978 Y137.155 E6.02208
G1 X174.024 Y137.328 E6.04352
G1 X174.223 Y138.214 E6.15225
G1 X174.249 Y138.354 E6.1693
G1 X174.378 Y139.232 E6.27555
G1 X174.401 Y139.459 E6.30287
G1 X174.483 Y140.916 E6.4776
G1 X174.599 Y158.854 E8.62548
G1 X174.56 Y159.982 E8.76063
G1 X174.469 Y160.867 E8.86715
G1 X174.444 Y161.045 E8.88867
G1 X174.285 Y161.94 E8.99752
G1 X174.254 Y162.082 E9.01492
G1 X174.03 Y162.965 E9.124
G1 X173.98 Y163.134 E9.1451
G1 X173.7 Y163.973 E9.251
G1 X173.628 Y164.166 E9.27567
G1 X173.276 Y165.011 E9.38527
G1 X173.057 Y165.644 E9.46547
G1 X172.919 Y166.313 E9.54726
G1 X172.866 Y166.994 E9.62905
G1 X172.899 Y167.676 E9.71081
G1 X173.018 Y168.351 E9.79288
G1 X173.29 Y169.17 E9.89621
G1 X173.334 Y169.274 E9.90973
G1 X173.671 Y170.155 E10.02267
G1 X173.723 Y170.305 E10.04168
G1 X173.978 Y171.155 E10.14794
G1 X174.024 Y171.328 E10.16937
G1 X174.223 Y172.214 E10.2781
G1 X174.249 Y172.354 E10.29515
G1 X174.378 Y173.232 E10.40141
G1 X174.401 Y173.459 E10.42873
G1 X174.483 Y174.916 E10.60346
G1 X174.599 Y192.854 E12.75134
G1 X174.56 Y193.982 E12.88648
G1 X174.469 Y194.867 E12.99301
G1 X174.444 Y195.045 E13.01453
G1 X174.285 Y195.94 E13.12337
G1 X174.254 Y196.082 E13.14077
G1 X174.03 Y196.965 E13.24985
G1 X173.98 Y197.134 E13.27095
G1 X173.7 Y197.973 E13.37686
G1 X173.632 Y198.155 E13.40012
G1 X173.291 Y198.974 E13.50635
G1 X173.224 Y199.12 E13.52558
G1 X172.823 Y199.914 E13.63209
G1 X172.74 Y200.065 E13.65272
G1 X172.273 Y200.838 E13.76086
G1 X172.177 Y200.986 E13.78198
G1 X171.669 Y201.706 E13.88749
G1 X171.554 Y201.857 E13.91021
G1 X170.893 Y202.657 E14.03447
G1 X170.188 Y203.397 E14.15685
G1 X169.503 Y204.033 E14.26877
G1 X169.355 Y204.16 E14.29212
G1 X168.662 Y204.716 E14.3985
G1 X168.523 Y204.82 E14.41929
G1 X167.808 Y205.313 E14.52328
G1 X167.624 Y205.429 E14.54932
G1 X166.868 Y205.872 E14.65424
G1 X166.726 Y205.949 E14.67358
G1 X165.781 Y206.408 E14.79937
G1 X164.926 Y206.753 E14.90977
G1 X164.763 Y206.811 E14.93048
G1 X163.92 Y207.082 E15.03651
G1 X163.756 Y207.128 E15.0569
G1 X162.884 Y207.34 E15.16436
G1 X162.722 Y207.373 E15.18415
G1 X161.829 Y207.521 E15.29253
G1 X161.652 Y207.544 E15.31391
G1 X160.758 Y207.627 E15.42141
G1 X160.616 Y207.634 E15.43843
G1 X159.875 Y207.655 E15.52719
G1 X140.114 Y207.654 E17.89331
G1 X138.99 Y207.609 E18.028
G1 X138.073 Y207.507 E18.13847
G1 X137.898 Y207.482 E18.15964
G1 X137.009 Y207.318 E18.26788
G1 X136.886 Y207.29 E18.28299
G1 X135.992 Y207.056 E18.39364
G1 X135.829 Y207.007 E18.41402
G1 X134.987 Y206.72 E18.52053
G1 X134.821 Y206.657 E18.54179
G1 X134.018 Y206.316 E18.64625
G1 X133.829 Y206.228 E18.67121
G1 X132.918 Y205.754 E18.79417
G1 X132.139 Y205.279 E18.90342
G1 X131.988 Y205.179 E18.92511
G1 X131.274 Y204.668 E19.03024
G1 X131.126 Y204.555 E19.05253
G1 X130.326 Y203.882 E19.17771
G1 X129.638 Y203.221 E19.29195
G1 X129.01 Y202.545 E19.40243
G1 X128.893 Y202.408 E19.424
G1 X128.339 Y201.717 E19.53005
G1 X128.235 Y201.578 E19.55083
G1 X127.742 Y200.863 E19.65482
G1 X127.626 Y200.679 E19.68087
G1 X127.183 Y199.923 E19.78578
G1 X127.106 Y199.781 E19.80512
G1 X126.647 Y198.836 E19.93092
G1 X126.299 Y197.975 E20.04211
G1 X126.242 Y197.814 E20.06256
G1 X125.97 Y196.966 E20.16919
G1 X125.924 Y196.802 E20.18959
G1 X125.713 Y195.93 E20.29701
G1 X125.68 Y195.769 E20.31669
G1 X125.534 Y194.884 E20.42409
G1 X125.511 Y194.707 E20.44546
G1 X125.428 Y193.808 E20.55356
G1 X125.421 Y193.671 E20.56999
G1 X125.4 Y192.938 E20.65779
G1 X125.4 Y175.076 E22.79652
G1 X125.436 Y174.07 E22.91706
G1 X125.446 Y173.935 E22.93326
G1 X125.548 Y173.018 E23.04374
G1 X125.573 Y172.843 E23.06491
G1 X125.735 Y171.965 E23.17181
G1 X125.765 Y171.831 E23.18825
G1 X125.996 Y170.946 E23.29777
G1 X126.048 Y170.774 E23.31928
G1 X126.33 Y169.946 E23.42402
G1 X126.4 Y169.763 E23.44748
G1 X126.678 Y169.107 E23.53279
G1 X126.901 Y168.474 E23.61315
G1 X127.044 Y167.806 E23.69494
G1 X127.103 Y167.127 E23.77655
G1 X127.075 Y166.444 E23.8584
G1 X126.96 Y165.771 E23.94015
G1 X126.764 Y165.124 E24.0211
G1 X126.299 Y163.975 E24.16951
G1 X126.242 Y163.814 E24.18996
G1 X125.97 Y162.966 E24.29659
G1 X125.924 Y162.802 E24.31699
G1 X125.713 Y161.93 E24.42441
G1 X125.68 Y161.769 E24.44409
G1 X125.534 Y160.884 E24.55149
G1 X125.511 Y160.707 E24.57286
G1 X125.428 Y159.808 E24.68096
G1 X125.421 Y159.671 E24.69739
G1 X125.4 Y158.938 E24.78519
G1 X125.4 Y141.076 E26.92392
G1 X125.436 Y140.07 E27.04445
G1 X125.446 Y139.935 E27.06066
G1 X125.548 Y139.018 E27.17114
G1 X125.573 Y138.843 E27.19231
G1 X125.735 Y137.965 E27.29921
G1 X125.765 Y137.831 E27.31565
G1 X125.996 Y136.946 E27.42517
G1 X126.048 Y136.774 E27.44668
G1 X126.335 Y135.932 E27.5532
G1 X126.398 Y135.766 E27.57446
G1 X126.739 Y134.963 E27.67892
G1 X126.82 Y134.788 E27.702
G1 X127.301 Y133.863 E27.82684
G1 X127.776 Y133.084 E27.93609
G1 X127.876 Y132.933 E27.95777
G1 X128.387 Y132.219 E28.0629
G1 X128.5 Y132.071 E28.0852
G1 X129.173 Y131.271 E28.21038
G1 X129.812 Y130.603 E28.32106
G0 F7200 X129.6 Y130.824
G1 F1350 X129.6 Y203.18 E36.98472
G0 F7200 X131.2 Y204.611
G1 F1350 X131.2 Y129.394 E45.99093
G0 F7200 X132.8 Y128.322
G1 F1350 X132.8 Y205.682 E55.25375
G0 F7200 X134.4 Y206.478
G1 F1350 X134.4 Y127.518 E64.70814
G0 F7200 X136 Y126.943
G1 F1350 X136 Y207.058 E74.30083
G0 F7200 X137.6 Y207.427
G1 F1350 X137.6 Y126.573 E83.982
G0 F7200 X139.2 Y126.376
G1 F1350 X139.2 Y207.617 E93.70952
G0 F7200 X140.8 Y207.654
G1 F1350 X140.8 Y126.346 E103.44505
G0 F7200 X142.4 Y126.346
G1 F1350 X142.4 Y207.654 E113.18059
G0 F7200 X144 Y207.654
G1 F1350 X144 Y126.346 E122.91612
G0 F7200 X145.6 Y126.346
G1 F1350 X145.6 Y207.654 E132.65165
G0 F7200 X147.2 Y207.654
G1 F1350 X147.2 Y126.346 E142.38719
G0 F7200 X148.8 Y126.346
G1 F1350 X148.8 Y207.654 E152.12272
G0 F7200 X150.4 Y207.654
G1 F1350 X150.4 Y126.346 E161.85826
G0 F7200 X152 Y126.346
G1 F1350 X152 Y207.654 E171.59379
G0 F7200 X153.6 Y207.654
G1 F1350 X153.6 Y126.346 E181.32932
G0 F7200 X155.2 Y126.346
G1 F1350 X155.2 Y207.654 E191.06486
G0 F7200 X156.8 Y207.654
G1 F1350 X156.8 Y126.346 E200.80039
G0 F7200 X158.4 Y126.346
G1 F1350 X158.4 Y207.654 E210.53593
G0 F7200 X160 Y207.652
G1 F1350 X160 Y126.351 E220.27062
G0 F7200 X161.6 Y126.457
G1 F1350 X161.6 Y207.549 E229.98029
G0 F7200 X163.2 Y207.264
G1 F1350 X163.2 Y126.733 E239.62279
G0 F7200 X164.8 Y127.208
G1 F1350 X164.8 Y206.798 E249.15262
G0 F7200 X166.4 Y206.108
G1 F1350 X166.4 Y127.892 E258.51793
G0 F7200 X168 Y128.814
G1 F1350 X168 Y205.181 E267.66185
G0 F7200 X169.6 Y203.943
G1 F1350 X169.6 Y130.053 E276.50917
G0 F7200 X171.2 Y131.729
G1 F1350 X171.2 Y202.286 E284.95742
G0 F7200 X172.8 Y199.956
G1 F1350 X172.8 Y134.151 E292.83668
G0 F7200 X174.4 Y139.45
G1 F1350 X174.4 Y161.293 E295.45209
G0 F7200 X173.377 Y166.372
G0 X173.344 Y167.357
G0 X174.4 Y173.45
G1 F1350 X174.4 Y195.293 E298.06749
G0 F7200 X128 Y201.237
G1 F1350 X128 Y132.759 E306.2668
G0 F7200 X126.4 Y135.761
G1 F1350 X126.4 Y164.224 E309.67486
G0 F7200 X126.641 Y167.113
G0 X126.4 Y169.763
M104 S200
G1 F1350 X126.4 Y198.224 E313.08268
G0 F600 X126.4 Y198.224 Z0.6
G0 F7200 X129.637 Y203.22
;TIME_ELAPSED:124.641139
;LAYER:-6
M140 S90
;TYPE:SUPPORT
G1 F1350 X130.326 Y203.88 E313.15885
G1 X130.424 Y203.963 E313.1691
G1 X129.064 Y202.603 E313.32263
G1 X129.009 Y202.544 E313.32906
G1 X128.893 Y202.407 E313.34339
G1 X128.338 Y201.716 E313.41414
G1 X128.235 Y201.577 E313.42795
G1 X127.741 Y200.862 E313.49732
G1 X127.625 Y200.678 E313.51469
G1 X127.183 Y199.921 E313.58466
G1 X127.106 Y199.78 E313.59748
G1 X126.647 Y198.835 E313.68134
G1 X126.603 Y198.728 E313.69058
G1 X134.317 Y206.441 E314.56135
G1 X134.821 Y206.656 E314.60509
G1 X134.987 Y206.719 E314.61926
G1 X135.828 Y207.006 E314.69019
G1 X135.992 Y207.055 E314.70385
G1 X136.469 Y207.18 E314.74322
G1 X125.869 Y196.58 E315.93984
G1 X125.712 Y195.928 E315.99337
G1 X125.679 Y195.768 E316.00641
G1 X125.534 Y194.882 E316.07808
G1 X125.526 Y194.822 E316.08291
G1 X138.226 Y207.523 E317.51665
G1 X138.99 Y207.607 E317.578
G1 X139.756 Y207.638 E317.6392
G1 X125.409 Y193.291 E319.25881
G1 X125.399 Y192.936 E319.28716
G1 X125.399 Y191.867 E319.37249
G1 X141.185 Y207.653 E321.15455
G1 X142.599 Y207.653 E321.26742
G1 X125.399 Y190.453 E323.20911
G1 X125.399 Y189.039 E323.32198
G1 X144.013 Y207.653 E325.42329
G1 X145.427 Y207.653 E325.53616
G1 X125.399 Y187.625 E327.7971
G1 X125.399 Y186.21 E327.91005
G1 X146.842 Y207.653 E330.33072
G1 X148.256 Y207.653 E330.44359
G1 X125.399 Y184.796 E333.02388
G1 X125.399 Y183.382 E333.13676
G1 X149.67 Y207.653 E335.87668
G1 X151.084 Y207.653 E335.98955
G1 X125.399 Y181.968 E338.88909
G1 X125.399 Y180.554 E339.00196
G1 X152.498 Y207.653 E342.06113
G1 X153.913 Y207.653 E342.17409
G1 X125.399 Y179.139 E345.39299
G1 X125.399 Y177.725 E345.50586
G1 X155.327 Y207.653 E348.8844
G1 X156.741 Y207.653 E348.99727
G1 X125.399 Y176.311 E352.53542
G1 X125.399 Y175.075 E352.63409
G1 X125.405 Y174.902 E352.6479
G1 X158.155 Y207.653 E356.34506
G1 X159.569 Y207.653 E356.45793
G1 X125.486 Y173.569 E360.30557
G1 X125.548 Y173.017 E360.34991
G1 X125.572 Y172.841 E360.36409
G1 X125.666 Y172.335 E360.40518
G1 X160.939 Y207.608 E364.3871
G1 X161.651 Y207.542 E364.44418
G1 X161.828 Y207.52 E364.45841
G1 X162.203 Y207.458 E364.48875
G1 X125.932 Y171.187 E368.58334
G1 X125.995 Y170.945 E368.6033
G1 X126.047 Y170.773 E368.61764
G1 X126.272 Y170.112 E368.67338
G1 X163.377 Y207.218 E372.86217
G1 X163.756 Y207.127 E372.89328
G1 X163.92 Y207.081 E372.90688
G1 X164.475 Y206.902 E372.95343
G1 X126.678 Y169.104 E377.22034
G1 X126.9 Y168.473 E377.27373
G1 X126.999 Y168.011 E377.31145
G1 X165.505 Y206.517 E381.65834
G1 X165.781 Y206.407 E381.68205
G1 X166.472 Y206.07 E381.74342
G1 X127.084 Y166.682 E386.18988
G1 X127.074 Y166.443 E386.20898
G1 X126.96 Y165.77 E386.26346
G1 X126.763 Y165.122 E386.31753
G1 X126.644 Y164.828 E386.34284
G1 X167.384 Y205.567 E390.94187
G1 X167.623 Y205.428 E390.96394
G1 X167.807 Y205.312 E390.9813
G1 X168.242 Y205.012 E391.02348
G1 X125.889 Y162.659 E395.80466
G1 X125.712 Y161.929 E395.86462
G1 X125.68 Y161.768 E395.87772
G1 X125.534 Y160.89 E395.94877
G1 X169.048 Y204.404 E400.86101
G1 X169.354 Y204.158 E400.89235
G1 X169.502 Y204.032 E400.90786
G1 X169.807 Y203.748 E400.94113
G1 X125.411 Y159.352 E405.95293
G1 X125.4 Y158.937 E405.98607
G1 X125.399 Y157.926 E406.06677
G1 X170.52 Y203.047 E411.16042
G1 X170.892 Y202.656 E411.2035
G1 X171.187 Y202.3 E411.24041
G1 X125.399 Y156.512 E416.40935
G1 X125.399 Y155.098 E416.52223
G1 X171.808 Y201.507 E421.76127
G1 X172.176 Y200.985 E421.81226
G1 X172.273 Y200.837 E421.82638
G1 X172.379 Y200.663 E421.84265
G1 X125.399 Y153.684 E427.1461
G1 X125.399 Y152.269 E427.25905
G1 X172.896 Y199.766 E432.62092
G1 X173.223 Y199.119 E432.67879
G1 X173.291 Y198.973 E432.69165
G1 X173.358 Y198.814 E432.70542
G1 X125.399 Y150.855 E438.11944
G1 X125.399 Y149.441 E438.23232
G1 X173.758 Y197.799 E443.69144
G1 X173.98 Y197.133 E443.74748
G1 X174.03 Y196.964 E443.76155
G1 X174.092 Y196.719 E443.78172
G1 X125.399 Y148.027 E449.27855
G1 X125.399 Y146.612 E449.3915
G1 X174.352 Y195.565 E454.91774
G1 X174.443 Y195.044 E454.95996
G1 X174.468 Y194.865 E454.97439
G1 X174.525 Y194.324 E455.01781
G1 X125.399 Y145.198 E460.56358
G1 X125.399 Y143.784 E460.67645
G1 X174.594 Y192.979 E466.23001
G1 X174.598 Y192.853 E466.24007
G1 X174.591 Y191.561 E466.3432
G1 X125.399 Y142.37 E471.89637
G1 X125.399 Y141.074 E471.99982
G1 X125.403 Y140.959 E472.009
G1 X174.581 Y190.138 E477.5607
G1 X174.572 Y188.714 E477.67437
G1 X125.48 Y139.622 E483.2163
G1 X125.548 Y139.017 E483.2649
G1 X125.572 Y138.842 E483.279
G1 X125.657 Y138.385 E483.3161
G1 X174.563 Y187.291 E488.83703
G1 X174.554 Y185.867 E488.95071
G1 X125.92 Y137.234 E494.44088
G1 X125.996 Y136.945 E494.46473
G1 X126.048 Y136.773 E494.47907
G1 X126.257 Y136.156 E494.53107
G1 X174.545 Y184.444 E499.98224
G1 X174.535 Y183.021 E500.09583
G1 X126.66 Y135.145 E505.50043
G1 X126.738 Y134.962 E505.51631
G1 X126.819 Y134.787 E505.53171
G1 X127.125 Y134.196 E505.58483
G1 X174.526 Y181.597 E510.93586
G1 X174.517 Y180.174 E511.04946
G1 X127.642 Y133.299 E516.34111
G1 X127.775 Y133.083 E516.36136
G1 X127.876 Y132.931 E516.37593
G1 X128.215 Y132.458 E516.42238
G1 X174.508 Y178.75 E521.64828
G1 X174.499 Y177.327 E521.76187
G1 X128.838 Y131.666 E526.91648
G1 X129.172 Y131.27 E526.95783
G1 X129.506 Y130.92 E526.99645
G1 X174.489 Y175.904 E532.07458
G1 X174.482 Y174.915 E532.15352
G1 X174.457 Y174.457 E532.19014
G1 X130.222 Y130.222 E537.18377
G1 X130.507 Y129.957 E537.21483
G1 X130.646 Y129.837 E537.22949
G1 X130.983 Y129.568 E537.26391
G1 X174.331 Y172.917 E542.15746
G1 X174.248 Y172.354 E542.20289
G1 X174.221 Y172.213 E542.21435
G1 X174.023 Y171.327 E542.28682
G1 X173.977 Y171.154 E542.30111
G1 X173.975 Y171.146 E542.30177
G1 X131.791 Y128.963 E547.0638
G1 X132.191 Y128.687 E547.1026
G1 X132.375 Y128.571 E547.11996
G1 X132.651 Y128.409 E547.14551
G1 X173.228 Y168.985 E551.72613
G1 X173.017 Y168.35 E551.77955
G1 X172.898 Y167.675 E551.83426
G1 X172.877 Y167.22 E551.87062
G1 X133.566 Y127.909 E556.30838
G1 X134.218 Y127.592 E556.36625
G1 X134.535 Y127.464 E556.39354
