;FLAVOR:Marlin
;TIME:8124
;Filament used: 6.13488m
;Layer height: 0.16
;MINX:91.199
;MINY:125.199
;MINZ:0.36
;MAXX:208.8
;MAXY:210.8
;MAXZ:25.05
;Generated with Cura_SteamEngine 4.3.0
M140 S90
M105
M190 S90
M82 ;absolute extrusion mode
; start_gcode
M117 Start Clean        ; Indicate nozzle clean in progress on LCD
;
M104 S200 
M109 S200 
M109 R200 
;
M107                    ; Turn layer fan off
G21                     ; Set to metric [change to G20 if you want Imperial]
G90                     ; Force coordinates to be absolute relative to the origin
G28                     ; Home X/Y/Z axis
;
G1 X3 Y1 Z15 F9000      ; Move safe Z height to shear strings
G0 X1 Y1 Z0.2 F9000     ; Move in 1mm from edge and up [z] 0.2mm
G92 E0                  ; Set extruder to [0] zero
G1 X100 E12 F500        ; Extrude 30mm filiment along X axis 100mm long to prime and clean the nozzle
G92 E0                  ; Reset extruder to [0] zero end of cleaning run
G1 E-1 F500             ; Retract filiment by 1 mm to reduce string effect
G1 X180 F4000           ; quick wipe away from the filament line / purge
M117 End Clean          ; Indicate nozzle clean in progress on LCD
;
M117 Printing...
; Begin printing with sliced GCode after here
;
G92 E0
G92 E0
G1 F2400 E-6.8
;LAYER_COUNT:149
;LAYER:-7
M107
M204 S500
M205 X8 Y8
G0 F7200 X97.338 Y128.339 Z0.36
;TYPE:SUPPORT-INTERFACE
G1 F2400 E0
G1 F1350 X97.477 Y128.235 E0.02079
G1 X98.192 Y127.742 E0.12478
G1 X98.376 Y127.626 E0.15082
G1 X99.132 Y127.183 E0.25574
G1 X99.274 Y127.106 E0.27508
G1 X100.219 Y126.647 E0.40087
G1 X101.069 Y126.304 E0.51062
G1 X101.242 Y126.242 E0.53263
G1 X102.08 Y125.973 E0.63801
G1 X102.244 Y125.927 E0.6584
G1 X103.116 Y125.715 E0.76585
G1 X103.278 Y125.682 E0.78565
G1 X104.171 Y125.534 E0.89403
G1 X104.348 Y125.511 E0.9154
G1 X105.242 Y125.428 E1.02291
G1 X105.384 Y125.421 E1.03993
G1 X106.125 Y125.4 E1.12869
G1 X125.886 Y125.401 E3.49481
G1 X127.01 Y125.446 E3.6295
G1 X127.927 Y125.548 E3.73997
G1 X128.102 Y125.573 E3.76114
G1 X128.991 Y125.737 E3.86938
G1 X129.114 Y125.765 E3.88449
G1 X130.008 Y125.999 E3.99514
G1 X130.171 Y126.048 E4.01552
G1 X131.089 Y126.363 E4.13172
G1 X131.729 Y126.562 E4.21198
G1 X132.403 Y126.681 E4.29393
G1 X133.084 Y126.714 E4.37556
G1 X133.765 Y126.661 E4.45735
G1 X134.432 Y126.522 E4.53893
G1 X135.241 Y126.242 E4.64143
G1 X136.08 Y125.973 E4.74693
G1 X136.244 Y125.927 E4.76732
G1 X137.116 Y125.715 E4.87478
G1 X137.278 Y125.682 E4.89457
G1 X138.171 Y125.534 E5.00295
G1 X138.348 Y125.511 E5.02433
G1 X139.242 Y125.428 E5.13183
G1 X139.384 Y125.421 E5.14885
G1 X140.125 Y125.4 E5.23761
G1 X159.886 Y125.401 E7.60373
G1 X161.01 Y125.446 E7.73842
G1 X161.927 Y125.548 E7.84889
G1 X162.102 Y125.573 E7.87006
G1 X162.991 Y125.737 E7.9783
G1 X163.114 Y125.765 E7.99341
G1 X164.008 Y125.999 E8.10406
G1 X164.171 Y126.048 E8.12444
G1 X165.089 Y126.363 E8.24065
G1 X165.729 Y126.562 E8.3209
G1 X166.403 Y126.681 E8.40285
G1 X167.084 Y126.714 E8.48448
G1 X167.765 Y126.661 E8.56627
G1 X168.432 Y126.522 E8.64785
G1 X169.241 Y126.242 E8.75036
G1 X170.08 Y125.973 E8.85585
G1 X170.244 Y125.927 E8.87625
G1 X171.116 Y125.715 E8.9837
G1 X171.278 Y125.682 E9.00349
G1 X172.171 Y125.534 E9.11188
G1 X172.348 Y125.511 E9.13325
G1 X173.242 Y125.428 E9.24075
G1 X173.384 Y125.421 E9.25778
G1 X174.125 Y125.4 E9.34654
G1 X193.851 Y125.4 E11.70846
G1 X195.01 Y125.446 E11.84734
G1 X195.927 Y125.548 E11.95782
G1 X196.102 Y125.573 E11.97898
G1 X196.991 Y125.737 E12.08723
G1 X197.114 Y125.765 E12.10233
G1 X198.008 Y125.999 E12.21298
G1 X198.171 Y126.048 E12.23336
G1 X199.013 Y126.335 E12.33988
G1 X199.179 Y126.398 E12.36113
G1 X199.982 Y126.739 E12.46559
G1 X200.171 Y126.827 E12.49056
G1 X201.082 Y127.301 E12.61352
G1 X201.861 Y127.776 E12.72276
G1 X202.012 Y127.876 E12.74445
G1 X202.726 Y128.387 E12.84958
G1 X202.874 Y128.5 E12.87188
G1 X203.674 Y129.173 E12.99705
G1 X204.342 Y129.812 E13.10774
G1 X204.988 Y130.508 E13.22144
G1 X205.107 Y130.647 E13.24335
G1 X205.661 Y131.338 E13.3494
G1 X205.765 Y131.477 E13.37018
G1 X206.258 Y132.192 E13.47417
G1 X206.374 Y132.376 E13.50022
G1 X206.887 Y133.259 E13.62249
G1 X207.292 Y134.082 E13.73232
G1 X207.353 Y134.219 E13.75028
G1 X207.695 Y135.064 E13.85943
G1 X207.754 Y135.23 E13.88052
G1 X208.025 Y136.072 E13.98643
G1 X208.072 Y136.238 E14.00709
G1 X208.283 Y137.107 E14.11417
G1 X208.317 Y137.27 E14.1341
G1 X208.465 Y138.162 E14.24237
G1 X208.489 Y138.348 E14.26482
G1 X208.579 Y139.384 E14.38934
G1 X208.6 Y140.117 E14.47714
G1 X208.6 Y159.869 E16.84218
G1 X208.564 Y160.875 E16.96271
G1 X208.554 Y161.01 E16.97892
G1 X208.452 Y161.927 E17.08939
G1 X208.427 Y162.102 E17.11056
G1 X208.265 Y162.98 E17.21746
G1 X208.235 Y163.114 E17.2339
G1 X208.004 Y163.999 E17.34342
G1 X207.952 Y164.171 E17.36494
G1 X207.665 Y165.013 E17.47145
G1 X207.602 Y165.179 E17.49271
G1 X207.261 Y165.982 E17.59717
G1 X207.18 Y166.157 E17.62026
G1 X206.776 Y166.943 E17.72607
G1 X206.698 Y167.082 E17.74516
G1 X206.224 Y167.861 E17.85434
G1 X206.124 Y168.012 E17.87603
G1 X205.613 Y168.726 E17.98116
G1 X205.5 Y168.874 E18.00346
G1 X204.827 Y169.674 E18.12863
G1 X204.188 Y170.342 E18.23932
G1 X203.503 Y170.978 E18.35124
G1 X203.355 Y171.105 E18.37459
G1 X202.662 Y171.661 E18.48097
G1 X202.523 Y171.765 E18.50176
G1 X201.808 Y172.258 E18.60575
G1 X201.624 Y172.374 E18.63179
G1 X200.868 Y172.817 E18.73671
G1 X200.726 Y172.894 E18.75605
G1 X199.781 Y173.353 E18.88184
G1 X198.926 Y173.698 E18.99224
G1 X198.763 Y173.756 E19.01296
G1 X197.92 Y174.027 E19.11898
G1 X197.756 Y174.073 E19.13938
G1 X196.884 Y174.285 E19.24683
G1 X196.722 Y174.318 E19.26662
G1 X195.829 Y174.466 E19.37501
G1 X195.652 Y174.489 E19.39638
G1 X194.758 Y174.572 E19.50388
G1 X194.616 Y174.579 E19.52091
G1 X193.875 Y174.6 E19.60967
G1 X179.987 Y174.6 E21.27257
G1 X179.319 Y174.642 E21.35271
G1 X178.648 Y174.771 E21.43452
G1 X177.999 Y174.984 E21.51631
G1 X177.382 Y175.276 E21.59804
G1 X176.807 Y175.644 E21.67978
G1 X176.283 Y176.082 E21.76156
G1 X175.819 Y176.582 E21.84323
G1 X175.42 Y177.138 E21.92518
G1 X175.096 Y177.738 E22.00682
G1 X174.85 Y178.374 E22.08847
G1 X174.684 Y179.043 E22.17101
G1 X174.6 Y179.982 E22.28389
G1 X174.6 Y195.869 E24.18614
G1 X174.564 Y196.875 E24.30667
G1 X174.554 Y197.01 E24.32288
G1 X174.452 Y197.927 E24.43336
G1 X174.427 Y198.102 E24.45452
G1 X174.265 Y198.98 E24.56143
G1 X174.235 Y199.114 E24.57787
G1 X174.004 Y199.999 E24.68739
G1 X173.952 Y200.171 E24.7089
G1 X173.665 Y201.013 E24.81541
G1 X173.602 Y201.179 E24.83667
G1 X173.261 Y201.982 E24.94113
G1 X173.18 Y202.157 E24.96422
G1 X172.776 Y202.943 E25.07004
G1 X172.698 Y203.082 E25.08912
G1 X172.224 Y203.861 E25.19831
G1 X172.124 Y204.012 E25.21999
G1 X171.613 Y204.726 E25.32513
G1 X171.5 Y204.874 E25.34742
G1 X170.827 Y205.674 E25.4726
G1 X170.188 Y206.342 E25.58328
G1 X169.503 Y206.978 E25.69521
G1 X169.355 Y207.105 E25.71856
G1 X168.662 Y207.661 E25.82494
G1 X168.523 Y207.765 E25.84573
G1 X167.808 Y208.258 E25.94972
G1 X167.624 Y208.374 E25.97576
G1 X166.868 Y208.817 E26.08068
G1 X166.726 Y208.894 E26.10002
G1 X165.781 Y209.353 E26.22581
G1 X164.926 Y209.698 E26.3362
G1 X164.763 Y209.756 E26.35692
G1 X163.92 Y210.027 E26.46295
G1 X163.756 Y210.073 E26.48334
G1 X162.884 Y210.285 E26.59079
G1 X162.722 Y210.318 E26.61059
G1 X161.829 Y210.466 E26.71897
G1 X161.652 Y210.489 E26.74034
G1 X160.758 Y210.572 E26.84785
G1 X160.616 Y210.579 E26.86487
G1 X159.875 Y210.6 E26.95363
G1 X140.114 Y210.599 E29.31974
G1 X138.99 Y210.554 E29.45444
G1 X138.073 Y210.452 E29.56491
G1 X137.898 Y210.427 E29.58608
G1 X137.009 Y210.263 E29.69432
G1 X136.886 Y210.235 E29.70942
G1 X135.992 Y210.001 E29.82007
G1 X135.829 Y209.952 E29.84045
G1 X134.987 Y209.665 E29.94697
G1 X134.821 Y209.602 E29.96823
G1 X134.018 Y209.261 E30.07269
G1 X133.829 Y209.173 E30.09765
G1 X132.918 Y208.699 E30.22061
G1 X132.139 Y208.224 E30.32986
G1 X131.988 Y208.124 E30.35154
G1 X131.274 Y207.613 E30.45667
G1 X131.126 Y207.5 E30.47897
G1 X130.326 Y206.827 E30.60415
G1 X129.654 Y206.184 E30.71551
G1 X129.01 Y205.49 E30.82887
G1 X128.893 Y205.353 E30.85044
G1 X128.343 Y204.667 E30.95572
G1 X128.227 Y204.511 E30.979
G1 X127.742 Y203.808 E31.08126
G1 X127.626 Y203.624 E31.10731
G1 X127.183 Y202.868 E31.21223
G1 X127.106 Y202.726 E31.23157
G1 X126.647 Y201.781 E31.35736
G1 X126.298 Y200.917 E31.46893
G1 X126.242 Y200.759 E31.489
G1 X125.97 Y199.911 E31.59564
G1 X125.928 Y199.761 E31.61429
G1 X125.712 Y198.873 E31.72371
G1 X125.683 Y198.73 E31.74118
G1 X125.533 Y197.824 E31.85114
G1 X125.511 Y197.652 E31.8719
G1 X125.428 Y196.753 E31.98001
G1 X125.421 Y196.616 E31.99643
G1 X125.4 Y195.883 E32.08423
G1 X125.4 Y179.987 E33.98756
G1 X125.358 Y179.319 E34.06771
G1 X125.229 Y178.648 E34.14952
G1 X125.016 Y177.999 E34.23131
G1 X124.724 Y177.382 E34.31304
G1 X124.356 Y176.807 E34.39478
G1 X123.918 Y176.283 E34.47656
G1 X123.418 Y175.819 E34.55823
G1 X122.862 Y175.42 E34.64017
G1 X122.262 Y175.096 E34.72182
G1 X121.626 Y174.85 E34.80347
G1 X120.957 Y174.684 E34.886
G1 X120.018 Y174.6 E34.99889
G1 X106.114 Y174.599 E36.6637
G1 X104.99 Y174.554 E36.79839
G1 X104.073 Y174.452 E36.90887
G1 X103.898 Y174.427 E36.93004
G1 X103.009 Y174.263 E37.03828
G1 X102.886 Y174.235 E37.05338
G1 X101.992 Y174.001 E37.16403
G1 X101.829 Y173.952 E37.18441
G1 X100.987 Y173.665 E37.29093
G1 X100.821 Y173.602 E37.31219
G1 X100.018 Y173.261 E37.41664
G1 X99.829 Y173.173 E37.44161
G1 X98.918 Y172.699 E37.56457
G1 X98.139 Y172.224 E37.67382
G1 X97.988 Y172.124 E37.6955
G1 X97.274 Y171.613 E37.80063
G1 X97.126 Y171.5 E37.82293
G1 X96.326 Y170.827 E37.94811
G1 X95.654 Y170.184 E38.05947
G1 X95.01 Y169.49 E38.17283
G1 X94.893 Y169.353 E38.1944
G1 X94.343 Y168.667 E38.29968
G1 X94.227 Y168.511 E38.32296
G1 X93.742 Y167.808 E38.42522
G1 X93.626 Y167.624 E38.45127
G1 X93.183 Y166.868 E38.55618
G1 X93.106 Y166.726 E38.57553
G1 X92.647 Y165.781 E38.70132
G1 X92.298 Y164.917 E38.81289
G1 X92.242 Y164.759 E38.83296
G1 X91.97 Y163.911 E38.93959
G1 X91.928 Y163.761 E38.95825
G1 X91.712 Y162.873 E39.06767
G1 X91.683 Y162.73 E39.08514
G1 X91.533 Y161.824 E39.1951
G1 X91.511 Y161.652 E39.21586
G1 X91.428 Y160.753 E39.32396
G1 X91.421 Y160.616 E39.34039
G1 X91.4 Y159.883 E39.42819
G1 X91.4 Y140.131 E41.79323
G1 X91.436 Y139.125 E41.91376
G1 X91.446 Y138.99 E41.92997
G1 X91.547 Y138.075 E42.04019
G1 X91.573 Y137.9 E42.06138
G1 X91.735 Y137.02 E42.16852
G1 X91.765 Y136.886 E42.18496
G1 X91.996 Y136 E42.29459
G1 X92.048 Y135.829 E42.31599
G1 X92.335 Y134.987 E42.4225
G1 X92.398 Y134.821 E42.44376
G1 X92.739 Y134.018 E42.54822
G1 X92.82 Y133.843 E42.57131
G1 X93.301 Y132.918 E42.69615
G1 X93.776 Y132.139 E42.80539
G1 X93.876 Y131.988 E42.82708
G1 X94.392 Y131.267 E42.93324
G1 X94.5 Y131.126 E42.95451
G1 X95.173 Y130.326 E43.07968
G1 X95.812 Y129.658 E43.19037
G1 X96.508 Y129.012 E43.30407
G1 X96.647 Y128.893 E43.32598
G1 X97.338 Y128.339 E43.43203
G0 F7200 X97.6 Y128.15
G1 F1350 X97.6 Y171.846 E48.66403
G0 F7200 X99.2 Y172.845
G1 F1350 X99.2 Y127.146 E54.13587
G0 F7200 X100.8 Y126.412
G1 F1350 X100.8 Y173.593 E59.78516
G0 F7200 X102.4 Y174.107
G1 F1350 X102.4 Y125.889 E65.55861
G0 F7200 X104 Y125.562
G1 F1350 X104 Y174.441 E71.41121
G0 F7200 X105.6 Y174.578
G1 F1350 X105.6 Y125.414 E77.29794
G0 F7200 X107.2 Y125.401
G1 F1350 X107.2 Y174.599 E83.18873
G0 F7200 X108.8 Y174.599
G1 F1350 X108.8 Y125.401 E89.07953
G0 F7200 X110.4 Y125.401
G1 F1350 X110.4 Y174.599 E94.97032
G0 F7200 X112 Y174.599
G1 F1350 X112 Y125.401 E100.86112
G0 F7200 X113.6 Y125.401
G1 F1350 X113.6 Y174.599 E106.75191
G0 F7200 X115.2 Y174.599
G1 F1350 X115.2 Y125.401 E112.64271
G0 F7200 X116.8 Y125.401
G1 F1350 X116.8 Y174.599 E118.53351
G0 F7200 X118.4 Y174.599
G1 F1350 X118.4 Y125.401 E124.4243
G0 F7200 X120 Y125.401
G1 F1350 X120 Y174.599 E130.3151
G0 F7200 X121.6 Y174.843
G1 F1350 X121.6 Y125.401 E136.23511
G0 F7200 X123.2 Y125.401
G1 F1350 X123.2 Y175.662 E142.25318
G0 F7200 X124.8 Y177.542
G1 F1350 X124.8 Y125.401 E148.49636
G0 F7200 X126.4 Y125.422
G1 F1350 X126.4 Y201.169 E157.56604
G0 F7200 X128 Y204.181
G1 F1350 X128 Y125.559 E166.97997
G0 F7200 X129.6 Y125.893
G1 F1350 X129.6 Y206.125 E176.58666
G0 F7200 X131.2 Y207.556
G1 F1350 X131.2 Y126.398 E186.30424
G0 F7200 X132.8 Y126.701
G1 F1350 X132.8 Y208.627 E196.11377
G0 F7200 X134.4 Y209.423
G1 F1350 X134.4 Y126.528 E206.03932
G0 F7200 X136 Y125.998
G1 F1350 X136 Y210.003 E216.09779
G0 F7200 X137.6 Y210.372
G1 F1350 X137.6 Y125.628 E226.24474
G0 F7200 X139.2 Y125.431
G1 F1350 X139.2 Y210.562 E236.43802
G0 F7200 X140.8 Y210.599
G1 F1350 X140.8 Y125.401 E246.63933
G0 F7200 X142.4 Y125.401
G1 F1350 X142.4 Y210.599 E256.84064
G0 F7200 X144 Y210.599
G1 F1350 X144 Y125.401 E267.04195
G0 F7200 X145.6 Y125.401
G1 F1350 X145.6 Y210.599 E277.24326
G0 F7200 X147.2 Y210.599
G1 F1350 X147.2 Y125.401 E287.44457
G0 F7200 X148.8 Y125.401
G1 F1350 X148.8 Y210.599 E297.64588
G0 F7200 X150.4 Y210.599
G1 F1350 X150.4 Y125.401 E307.84719
G0 F7200 X152 Y125.401
G1 F1350 X152 Y210.599 E318.0485
G0 F7200 X153.6 Y210.599
G1 F1350 X153.6 Y125.401 E328.24981
G0 F7200 X155.2 Y125.401
G1 F1350 X155.2 Y210.599 E338.45111
G0 F7200 X156.8 Y210.599
G1 F1350 X156.8 Y125.401 E348.65242
G0 F7200 X158.4 Y125.401
G1 F1350 X158.4 Y210.599 E358.85373
G0 F7200 X160 Y210.597
G1 F1350 X160 Y125.406 E369.0542
G0 F7200 X161.6 Y125.512
G1 F1350 X161.6 Y210.494 E379.22965
G0 F7200 X163.2 Y210.209
G1 F1350 X163.2 Y125.788 E389.33792
G0 F7200 X164.8 Y126.264
G1 F1350 X164.8 Y209.743 E399.33341
G0 F7200 X166.4 Y209.053
G1 F1350 X166.4 Y126.681 E409.19634
G0 F7200 X168 Y126.612
G1 F1350 X168 Y208.126 E418.95654
G0 F7200 X169.6 Y206.888
G1 F1350 X169.6 Y126.126 E428.6267
G0 F7200 X171.2 Y125.697
G1 F1350 X171.2 Y205.231 E438.14982
G0 F7200 X172.8 Y202.897
G1 F1350 X172.8 Y125.469 E447.42078
G0 F7200 X174.4 Y125.4
G1 F1350 X174.4 Y198.249 E456.14346
G0 F7200 X175.061 Y180.008
G0 X175.141 Y179.117
G0 X176 Y176.387
G1 F1350 X176 Y125.4 E462.24846
G0 F7200 X177.6 Y125.4
G1 F1350 X177.6 Y175.173 E468.20811
G0 F7200 X179.2 Y174.665
G1 F1350 X179.2 Y125.4 E474.10693
G0 F7200 X180.8 Y125.4
G1 F1350 X180.8 Y174.6 E479.99796
G0 F7200 X182.4 Y174.6
G1 F1350 X182.4 Y125.4 E485.889
G0 F7200 X184 Y125.4
G1 F1350 X184 Y174.6 E491.78003
G0 F7200 X185.6 Y174.6
G1 F1350 X185.6 Y125.4 E497.67107
G0 F7200 X187.2 Y125.4
G1 F1350 X187.2 Y174.6 E503.5621
G0 F7200 X188.8 Y174.6
G1 F1350 X188.8 Y125.4 E509.45314
G0 F7200 X190.4 Y125.4
G1 F1350 X190.4 Y174.6 E515.34417
G0 F7200 X192 Y174.6
G1 F1350 X192 Y125.4 E521.23521
G0 F7200 X193.6 Y125.4
G1 F1350 X193.6 Y174.6 E527.12624
G0 F7200 X195.2 Y174.531
G1 F1350 X195.2 Y125.468 E533.00087
G0 F7200 X196.8 Y125.702
G1 F1350 X196.8 Y174.303 E538.82019
G0 F7200 X198.4 Y173.873
G1 F1350 X198.4 Y126.127 E544.53712
G0 F7200 X200 Y126.748
G1 F1350 X200 Y173.247 E550.10475
G0 F7200 X201.6 Y172.389
G1 F1350 X201.6 Y127.617 E555.46559
G0 F7200 X203.2 Y128.775
G1 F1350 X203.2 Y171.23 E560.54901
G0 F7200 X204.8 Y169.703
G1 F1350 X204.8 Y130.306 E565.26626
G0 F7200 X206.4 Y132.421
G1 F1350 X206.4 Y167.572 E569.47512
G0 F7200 X208 Y164.013
G1 F1350 X208 Y135.995 E572.8299
G0 F7200 X96 Y129.483
G1 F1350 X96 Y170.515 E577.74293
G0 F7200 X94.4 Y168.738
G1 F1350 X94.4 Y131.256 E582.23089
G0 F7200 X92.8 Y133.886
M104 S200
G1 F1350 X92.8 Y166.096 E586.0876
G0 F600 X92.8 Y166.096 Z0.6
G0 F7200 X93.105 Y166.725
;TIME_ELAPSED:231.358660
;LAYER:-6
M140 S90
;TYPE:SUPPORT
G1 F1350 X93.182 Y166.867 E586.1005
G1 X93.625 Y167.623 E586.17044
G1 X93.741 Y167.807 E586.1878
G1 X94.226 Y168.509 E586.25591
G1 X94.342 Y168.666 E586.27149
G1 X94.893 Y169.352 E586.34173
G1 X95.009 Y169.489 E586.35606
G1 X95.653 Y170.182 E586.43158
G1 X96.325 Y170.826 E586.50587
G1 X97.126 Y171.499 E586.58939
G1 X97.273 Y171.611 E586.60414
G1 X97.988 Y172.123 E586.67434
G1 X98.138 Y172.223 E586.68873
G1 X98.917 Y172.698 E586.76156
G1 X99.421 Y172.96 E586.8069
G1 X93.029 Y166.568 E587.52849
G1 X92.647 Y165.78 E587.59839
G1 X92.297 Y164.916 E587.6728
G1 X92.242 Y164.758 E587.68616
G1 X92.057 Y164.182 E587.73445
G1 X101.824 Y173.948 E588.83697
