;FLAVOR:Marlin
;TIME:11181
;Filament used: 7.36719m
;Layer height: 0.16
;MINX:91.199
;MINY:122.746
;MINZ:0.36
;MAXX:208.799
;MAXY:217.253
;MAXZ:24.89
;Generated with Cura_SteamEngine 4.3.0
M140 S90
M105
M190 S90
M82 ;absolute extrusion mode
; start_gcode
M117 Start Clean        ; Indicate nozzle clean in progress on LCD
;
M104 S200 
M109 S200 
M109 R200 
;
M107                    ; Turn layer fan off
G21                     ; Set to metric [change to G20 if you want Imperial]
G90                     ; Force coordinates to be absolute relative to the origin
G28                     ; Home X/Y/Z axis
;
G1 X3 Y1 Z15 F9000      ; Move safe Z height to shear strings
G0 X1 Y1 Z0.2 F9000     ; Move in 1mm from edge and up [z] 0.2mm
G92 E0                  ; Set extruder to [0] zero
G1 X100 E12 F500        ; Extrude 30mm filiment along X axis 100mm long to prime and clean the nozzle
G92 E0                  ; Reset extruder to [0] zero end of cleaning run
G1 E-1 F500             ; Retract filiment by 1 mm to reduce string effect
G1 X180 F4000           ; quick wipe away from the filament line / purge
M117 End Clean          ; Indicate nozzle clean in progress on LCD
;
M117 Printing...
; Begin printing with sliced GCode after here
;
G92 E0
G92 E0
G1 F2400 E-6.8
;LAYER_COUNT:148
;LAYER:-7
M107
M204 S500
M205 X8 Y8
G0 F7200 X97.338 Y125.886 Z0.36
;TYPE:SUPPORT-INTERFACE
G1 F2400 E0
G1 F1350 X97.477 Y125.782 E0.02079
G1 X98.192 Y125.289 E0.12478
G1 X98.376 Y125.173 E0.15082
G1 X99.132 Y124.73 E0.25574
G1 X99.274 Y124.653 E0.27508
G1 X100.219 Y124.194 E0.40087
G1 X101.069 Y123.851 E0.51062
G1 X101.242 Y123.789 E0.53263
G1 X102.08 Y123.52 E0.63801
G1 X102.244 Y123.474 E0.6584
G1 X103.116 Y123.262 E0.76585
G1 X103.278 Y123.229 E0.78565
G1 X104.171 Y123.081 E0.89403
G1 X104.348 Y123.058 E0.9154
G1 X105.242 Y122.975 E1.02291
G1 X105.384 Y122.968 E1.03993
G1 X106.125 Y122.947 E1.12869
G1 X125.886 Y122.948 E3.49481
G1 X127.01 Y122.993 E3.6295
G1 X127.927 Y123.095 E3.73997
G1 X128.102 Y123.12 E3.76114
G1 X128.991 Y123.284 E3.86938
G1 X129.114 Y123.312 E3.88449
G1 X130.008 Y123.546 E3.99514
G1 X130.171 Y123.595 E4.01552
G1 X131.089 Y123.91 E4.13172
G1 X131.729 Y124.109 E4.21198
G1 X132.403 Y124.228 E4.29393
G1 X133.084 Y124.261 E4.37556
G1 X133.765 Y124.208 E4.45735
G1 X134.432 Y124.069 E4.53893
G1 X135.241 Y123.789 E4.64143
G1 X136.08 Y123.52 E4.74693
G1 X136.244 Y123.474 E4.76732
G1 X137.116 Y123.262 E4.87478
G1 X137.278 Y123.229 E4.89457
G1 X138.171 Y123.081 E5.00295
G1 X138.348 Y123.058 E5.02433
G1 X139.242 Y122.975 E5.13183
G1 X139.384 Y122.968 E5.14885
G1 X140.125 Y122.947 E5.23761
G1 X159.886 Y122.948 E7.60373
G1 X161.01 Y122.993 E7.73842
G1 X161.927 Y123.095 E7.84889
G1 X162.102 Y123.12 E7.87006
G1 X162.991 Y123.284 E7.9783
G1 X163.114 Y123.312 E7.99341
G1 X164.008 Y123.546 E8.10406
G1 X164.171 Y123.595 E8.12444
G1 X165.089 Y123.91 E8.24065
G1 X165.729 Y124.109 E8.3209
G1 X166.403 Y124.228 E8.40285
G1 X167.084 Y124.261 E8.48448
G1 X167.765 Y124.208 E8.56627
G1 X168.432 Y124.069 E8.64785
G1 X169.241 Y123.789 E8.75036
G1 X170.08 Y123.52 E8.85585
G1 X170.244 Y123.474 E8.87625
G1 X171.116 Y123.262 E8.9837
G1 X171.278 Y123.229 E9.00349
G1 X172.171 Y123.081 E9.11188
G1 X172.348 Y123.058 E9.13325
G1 X173.242 Y122.975 E9.24075
G1 X173.384 Y122.968 E9.25778
G1 X174.125 Y122.947 E9.34654
G1 X193.851 Y122.947 E11.70846
G1 X195.01 Y122.993 E11.84734
G1 X195.927 Y123.095 E11.95782
G1 X196.102 Y123.12 E11.97898
G1 X196.991 Y123.284 E12.08723
G1 X197.114 Y123.312 E12.10233
G1 X198.008 Y123.546 E12.21298
G1 X198.171 Y123.595 E12.23336
G1 X199.013 Y123.882 E12.33988
G1 X199.179 Y123.945 E12.36113
G1 X199.982 Y124.286 E12.46559
G1 X200.171 Y124.374 E12.49056
G1 X201.082 Y124.848 E12.61352
G1 X201.861 Y125.323 E12.72276
G1 X202.012 Y125.423 E12.74445
G1 X202.726 Y125.934 E12.84958
G1 X202.874 Y126.047 E12.87188
G1 X203.565 Y126.623 E12.97959
G1 X203.678 Y126.724 E12.99774
G1 X204.327 Y127.349 E13.10562
G1 X204.447 Y127.474 E13.12637
G1 X205.05 Y128.145 E13.23439
G1 X205.146 Y128.261 E13.25242
G1 X205.696 Y128.973 E13.36014
G1 X205.809 Y129.132 E13.3835
G1 X206.299 Y129.87 E13.48957
G1 X206.375 Y129.996 E13.50719
G1 X206.821 Y130.79 E13.61623
G1 X206.899 Y130.94 E13.63647
G1 X207.282 Y131.755 E13.7443
G1 X207.342 Y131.898 E13.76287
G1 X207.671 Y132.757 E13.87301
G1 X207.723 Y132.907 E13.89201
G1 X207.978 Y133.757 E13.99827
G1 X208.024 Y133.93 E14.01971
G1 X208.223 Y134.816 E14.12844
G1 X208.248 Y134.955 E14.14535
G1 X208.377 Y135.828 E14.25101
G1 X208.4 Y136.047 E14.27738
G1 X208.483 Y137.55 E14.45762
G1 X208.599 Y162.299 E17.42101
G1 X208.568 Y163.251 E17.53506
G1 X208.557 Y163.411 E17.55426
G1 X208.443 Y164.453 E17.67977
G1 X208.246 Y165.524 E17.81016
G1 X208.026 Y166.38 E17.91598
G1 X207.974 Y166.554 E17.93773
G1 X207.634 Y167.55 E18.06374
G1 X207.288 Y168.378 E18.17119
G1 X207.205 Y168.557 E18.19482
G1 X206.809 Y169.336 E18.29945
G1 X206.723 Y169.493 E18.32089
G1 X206.264 Y170.252 E18.42709
G1 X206.172 Y170.393 E18.44725
G1 X205.643 Y171.141 E18.55695
G1 X205.545 Y171.269 E18.57625
G1 X204.867 Y172.083 E18.7031
G1 X204.188 Y172.795 E18.8209
G1 X203.503 Y173.431 E18.93282
G1 X203.355 Y173.558 E18.95617
G1 X202.662 Y174.114 E19.06256
G1 X202.523 Y174.218 E19.08334
G1 X201.808 Y174.711 E19.18733
G1 X201.624 Y174.827 E19.21338
G1 X200.868 Y175.27 E19.31829
G1 X200.726 Y175.347 E19.33763
G1 X199.781 Y175.806 E19.46343
G1 X198.926 Y176.151 E19.57382
G1 X198.763 Y176.209 E19.59454
G1 X197.92 Y176.48 E19.70056
G1 X197.756 Y176.526 E19.72096
G1 X196.884 Y176.738 E19.82841
G1 X196.722 Y176.771 E19.8482
G1 X195.829 Y176.919 E19.95659
G1 X195.652 Y176.942 E19.97796
G1 X194.758 Y177.025 E20.08546
G1 X194.616 Y177.032 E20.10249
G1 X193.875 Y177.053 E20.19125
G1 X179.987 Y177.053 E21.85415
G1 X179.319 Y177.095 E21.93429
G1 X178.648 Y177.224 E22.0161
G1 X177.999 Y177.437 E22.09789
G1 X177.382 Y177.729 E22.17962
G1 X176.807 Y178.097 E22.26137
G1 X176.283 Y178.535 E22.34314
G1 X175.819 Y179.035 E22.42482
G1 X175.42 Y179.591 E22.50676
G1 X175.096 Y180.191 E22.5884
G1 X174.85 Y180.827 E22.67005
G1 X174.684 Y181.496 E22.75259
G1 X174.6 Y182.435 E22.86547
G1 X174.6 Y202.322 E25.24667
G1 X174.564 Y203.328 E25.3672
G1 X174.554 Y203.463 E25.38341
G1 X174.452 Y204.38 E25.49389
G1 X174.427 Y204.555 E25.51505
G1 X174.265 Y205.433 E25.62195
G1 X174.235 Y205.567 E25.6384
G1 X174.004 Y206.452 E25.74791
G1 X173.952 Y206.624 E25.76943
G1 X173.665 Y207.466 E25.87594
G1 X173.602 Y207.632 E25.8972
G1 X173.261 Y208.435 E26.00166
G1 X173.18 Y208.61 E26.02475
G1 X172.776 Y209.396 E26.13057
G1 X172.698 Y209.535 E26.14965
G1 X172.224 Y210.314 E26.25884
G1 X172.124 Y210.465 E26.28052
G1 X171.613 Y211.179 E26.38565
G1 X171.5 Y211.327 E26.40795
G1 X170.827 Y212.127 E26.53313
G1 X170.188 Y212.795 E26.64381
G1 X169.503 Y213.431 E26.75573
G1 X169.355 Y213.558 E26.77908
G1 X168.662 Y214.114 E26.88547
G1 X168.523 Y214.218 E26.90625
G1 X167.808 Y214.711 E27.01024
G1 X167.624 Y214.827 E27.03629
G1 X166.868 Y215.27 E27.1412
G1 X166.726 Y215.347 E27.16055
G1 X165.781 Y215.806 E27.28634
G1 X164.926 Y216.151 E27.39673
G1 X164.763 Y216.209 E27.41745
G1 X163.92 Y216.48 E27.52347
G1 X163.756 Y216.526 E27.54387
G1 X162.884 Y216.738 E27.65132
G1 X162.722 Y216.771 E27.67112
G1 X161.829 Y216.919 E27.7795
G1 X161.652 Y216.942 E27.80087
G1 X160.758 Y217.025 E27.90838
G1 X160.616 Y217.032 E27.9254
G1 X159.875 Y217.053 E28.01416
G1 X140.114 Y217.052 E30.38027
G1 X138.99 Y217.007 E30.51496
G1 X138.073 Y216.905 E30.62544
G1 X137.898 Y216.88 E30.64661
G1 X137.009 Y216.716 E30.75485
G1 X136.886 Y216.688 E30.76995
G1 X135.992 Y216.454 E30.8806
G1 X135.829 Y216.405 E30.90098
G1 X134.987 Y216.118 E31.0075
G1 X134.821 Y216.055 E31.02876
G1 X134.018 Y215.714 E31.13321
G1 X133.829 Y215.626 E31.15818
G1 X132.918 Y215.152 E31.28114
G1 X132.139 Y214.677 E31.39039
G1 X131.988 Y214.577 E31.41207
G1 X131.274 Y214.066 E31.5172
G1 X131.126 Y213.953 E31.5395
G1 X130.326 Y213.28 E31.66467
G1 X129.654 Y212.637 E31.77604
G1 X129.01 Y211.943 E31.8894
G1 X128.893 Y211.806 E31.91097
G1 X128.343 Y211.12 E32.01625
G1 X128.227 Y210.964 E32.03953
G1 X127.742 Y210.261 E32.14179
G1 X127.626 Y210.077 E32.16784
G1 X127.183 Y209.321 E32.27275
G1 X127.106 Y209.179 E32.2921
G1 X126.647 Y208.234 E32.41789
G1 X126.298 Y207.37 E32.52946
G1 X126.242 Y207.212 E32.54953
G1 X125.97 Y206.364 E32.65616
G1 X125.928 Y206.214 E32.67482
G1 X125.712 Y205.326 E32.78424
G1 X125.683 Y205.183 E32.80171
G1 X125.533 Y204.277 E32.91167
G1 X125.511 Y204.105 E32.93243
G1 X125.428 Y203.206 E33.04053
G1 X125.421 Y203.069 E33.05696
G1 X125.4 Y202.336 E33.14476
G1 X125.4 Y182.44 E35.52704
G1 X125.358 Y181.772 E35.60718
G1 X125.229 Y181.101 E35.689
G1 X125.016 Y180.452 E35.77078
G1 X124.724 Y179.835 E35.85252
G1 X124.356 Y179.26 E35.93426
G1 X123.918 Y178.736 E36.01603
G1 X123.418 Y178.272 E36.09771
G1 X122.862 Y177.873 E36.17965
G1 X122.262 Y177.549 E36.2613
G1 X121.626 Y177.303 E36.34295
G1 X120.957 Y177.137 E36.42548
G1 X120.018 Y177.053 E36.53836
G1 X106.114 Y177.052 E38.20318
G1 X104.99 Y177.007 E38.33787
G1 X104.073 Y176.905 E38.44834
G1 X103.898 Y176.88 E38.46951
G1 X103.009 Y176.716 E38.57775
G1 X102.886 Y176.688 E38.59286
G1 X101.992 Y176.454 E38.70351
G1 X101.829 Y176.405 E38.72389
G1 X100.987 Y176.118 E38.8304
G1 X100.821 Y176.055 E38.85166
G1 X100.018 Y175.714 E38.95612
G1 X99.829 Y175.626 E38.98108
G1 X98.918 Y175.152 E39.10404
G1 X98.139 Y174.677 E39.21329
G1 X97.988 Y174.577 E39.23498
G1 X97.274 Y174.066 E39.34011
G1 X97.126 Y173.953 E39.3624
G1 X96.326 Y173.28 E39.48758
G1 X95.641 Y172.623 E39.60123
G1 X95.01 Y171.943 E39.7123
G1 X94.893 Y171.806 E39.73387
G1 X94.339 Y171.115 E39.83992
G1 X94.235 Y170.976 E39.86071
G1 X93.742 Y170.261 E39.9647
G1 X93.626 Y170.077 E39.99074
G1 X93.183 Y169.321 E40.09566
G1 X93.106 Y169.179 E40.115
G1 X92.647 Y168.234 E40.24079
G1 X92.299 Y167.373 E40.35199
G1 X92.242 Y167.212 E40.37244
G1 X91.97 Y166.364 E40.47907
G1 X91.924 Y166.2 E40.49946
G1 X91.713 Y165.328 E40.60689
G1 X91.68 Y165.167 E40.62656
G1 X91.533 Y164.277 E40.73457
G1 X91.511 Y164.105 E40.75534
G1 X91.428 Y163.206 E40.86344
G1 X91.421 Y163.069 E40.87986
G1 X91.4 Y162.336 E40.96766
G1 X91.4 Y137.678 E43.92013
G1 X91.436 Y136.672 E44.04066
G1 X91.446 Y136.537 E44.05687
G1 X91.548 Y135.62 E44.16734
G1 X91.573 Y135.445 E44.18851
G1 X91.735 Y134.567 E44.29541
G1 X91.765 Y134.433 E44.31186
G1 X91.996 Y133.548 E44.42137
G1 X92.048 Y133.376 E44.44289
G1 X92.335 Y132.534 E44.5494
G1 X92.398 Y132.368 E44.57066
G1 X92.739 Y131.565 E44.67512
G1 X92.82 Y131.39 E44.69821
G1 X93.301 Y130.465 E44.82304
G1 X93.776 Y129.686 E44.93229
G1 X93.876 Y129.535 E44.95398
G1 X94.387 Y128.821 E45.05911
G1 X94.5 Y128.673 E45.0814
G1 X95.173 Y127.873 E45.20658
G1 X95.812 Y127.205 E45.31727
G1 X96.508 Y126.559 E45.43097
G1 X96.647 Y126.44 E45.45288
G1 X97.338 Y125.886 E45.55892
G0 F7200 X97.6 Y125.697
G1 F1350 X97.6 Y174.299 E51.37836
G0 F7200 X99.2 Y175.298
G1 F1350 X99.2 Y124.693 E57.43762
G0 F7200 X100.8 Y123.959
G1 F1350 X100.8 Y176.046 E63.67434
G0 F7200 X102.4 Y176.56
G1 F1350 X102.4 Y123.436 E70.03522
G0 F7200 X104 Y123.109
G1 F1350 X104 Y176.894 E76.47524
G0 F7200 X105.6 Y177.031
G1 F1350 X105.6 Y122.961 E82.9494
G0 F7200 X107.2 Y122.948
G1 F1350 X107.2 Y177.052 E89.42762
G0 F7200 X108.8 Y177.052
G1 F1350 X108.8 Y122.948 E95.90584
G0 F7200 X110.4 Y122.948
G1 F1350 X110.4 Y177.052 E102.38406
G0 F7200 X112 Y177.052
G1 F1350 X112 Y122.948 E108.86229
G0 F7200 X113.6 Y122.948
G1 F1350 X113.6 Y177.052 E115.34051
G0 F7200 X115.2 Y177.052
G1 F1350 X115.2 Y122.948 E121.81873
G0 F7200 X116.8 Y122.948
G1 F1350 X116.8 Y177.052 E128.29696
G0 F7200 X118.4 Y177.052
G1 F1350 X118.4 Y122.948 E134.77518
G0 F7200 X120 Y122.948
G1 F1350 X120 Y177.052 E141.2534
G0 F7200 X121.6 Y177.296
G1 F1350 X121.6 Y122.948 E147.76084
G0 F7200 X123.2 Y122.948
G1 F1350 X123.2 Y178.115 E154.36634
G0 F7200 X124.8 Y179.995
G1 F1350 X124.8 Y122.948 E161.19695
G0 F7200 X126.4 Y122.969
G1 F1350 X126.4 Y207.622 E171.333
G0 F7200 X128 Y210.634
G1 F1350 X128 Y123.106 E181.8133
G0 F7200 X129.6 Y123.44
G1 F1350 X129.6 Y212.578 E192.48637
G0 F7200 X131.2 Y214.009
G1 F1350 X131.2 Y123.945 E203.27032
G0 F7200 X132.8 Y124.248
G1 F1350 X132.8 Y215.08 E214.14622
G0 F7200 X134.4 Y215.876
G1 F1350 X134.4 Y124.075 E225.13815
G0 F7200 X136 Y123.545
G1 F1350 X136 Y216.456 E236.26299
G0 F7200 X137.6 Y216.825
G1 F1350 X137.6 Y123.175 E247.47631
G0 F7200 X139.2 Y122.978
G1 F1350 X139.2 Y217.015 E258.73597
G0 F7200 X140.8 Y217.052
G1 F1350 X140.8 Y122.948 E270.00365
G0 F7200 X142.4 Y122.948
G1 F1350 X142.4 Y217.052 E281.27133
G0 F7200 X144 Y217.052
G1 F1350 X144 Y122.948 E292.53901
G0 F7200 X145.6 Y122.948
G1 F1350 X145.6 Y217.052 E303.8067
G0 F7200 X147.2 Y217.052
G1 F1350 X147.2 Y122.948 E315.07438
G0 F7200 X148.8 Y122.948
G1 F1350 X148.8 Y217.052 E326.34206
G0 F7200 X150.4 Y217.052
G1 F1350 X150.4 Y122.948 E337.60974
G0 F7200 X152 Y122.948
G1 F1350 X152 Y217.052 E348.87743
G0 F7200 X153.6 Y217.052
G1 F1350 X153.6 Y122.948 E360.14511
G0 F7200 X155.2 Y122.948
G1 F1350 X155.2 Y217.052 E371.41279
G0 F7200 X156.8 Y217.052
G1 F1350 X156.8 Y122.948 E382.68047
G0 F7200 X158.4 Y122.948
G1 F1350 X158.4 Y217.052 E393.94816
G0 F7200 X160 Y217.05
G1 F1350 X160 Y122.953 E405.215
G0 F7200 X161.6 Y123.059
G1 F1350 X161.6 Y216.947 E416.45682
G0 F7200 X163.2 Y216.662
G1 F1350 X163.2 Y123.335 E427.63147
G0 F7200 X164.8 Y123.811
G1 F1350 X164.8 Y216.196 E438.69332
G0 F7200 X166.4 Y215.506
G1 F1350 X166.4 Y124.228 E449.62263
G0 F7200 X168 Y124.159
G1 F1350 X168 Y214.579 E460.4492
G0 F7200 X169.6 Y213.341
G1 F1350 X169.6 Y123.673 E471.18573
G0 F7200 X171.2 Y123.244
G1 F1350 X171.2 Y211.684 E481.77523
G0 F7200 X172.8 Y209.35
G1 F1350 X172.8 Y123.016 E492.11256
G0 F7200 X174.4 Y122.947
G1 F1350 X174.4 Y204.702 E501.90161
G0 F7200 X175.061 Y182.461
G0 X175.141 Y181.57
G0 X176 Y178.84
G1 F1350 X176 Y122.947 E508.59404
G0 F7200 X177.6 Y122.947
G1 F1350 X177.6 Y177.626 E515.14112
G0 F7200 X179.2 Y177.118
G1 F1350 X179.2 Y122.947 E521.62736
G0 F7200 X180.8 Y122.947
G1 F1350 X180.8 Y177.053 E528.10582
G0 F7200 X182.4 Y177.053
G1 F1350 X182.4 Y122.947 E534.58429
G0 F7200 X184 Y122.947
G1 F1350 X184 Y177.053 E541.06275
G0 F7200 X185.6 Y177.053
G1 F1350 X185.6 Y122.947 E547.54121
G0 F7200 X187.2 Y122.947
G1 F1350 X187.2 Y177.053 E554.01967
G0 F7200 X188.8 Y177.053
G1 F1350 X188.8 Y122.947 E560.49813
G0 F7200 X190.4 Y122.947
G1 F1350 X190.4 Y177.053 E566.9766
G0 F7200 X192 Y177.053
G1 F1350 X192 Y122.947 E573.45506
G0 F7200 X193.6 Y122.947
G1 F1350 X193.6 Y177.053 E579.93352
G0 F7200 X195.2 Y176.984
G1 F1350 X195.2 Y123.015 E586.39558
G0 F7200 X196.8 Y123.249
G1 F1350 X196.8 Y176.756 E592.80232
G0 F7200 X198.4 Y176.326
G1 F1350 X198.4 Y123.674 E599.10669
G0 F7200 X200 Y124.295
G1 F1350 X200 Y175.7 E605.26174
G0 F7200 X201.6 Y174.842
G1 F1350 X201.6 Y125.164 E611.21001
G0 F7200 X203.2 Y126.319
G1 F1350 X203.2 Y173.683 E616.88121
G0 F7200 X204.8 Y172.154
G1 F1350 X204.8 Y127.867 E622.18398
G0 F7200 X206.4 Y130.041
G1 F1350 X206.4 Y170.028 E626.97188
G0 F7200 X208 Y166.467
G1 F1350 X208 Y133.84 E630.87852
G0 F7200 X96 Y127.03
G1 F1350 X96 Y172.967 E636.37886
G0 F7200 X94.4 Y171.191
G1 F1350 X94.4 Y128.803 E641.45425
G0 F7200 X92.8 Y131.433
M104 S200
G1 F1350 X92.8 Y168.549 E645.89839
G0 F600 X92.8 Y168.549 Z0.6
G0 F7200 X93.625 Y170.076
;TIME_ELAPSED:253.625203
;LAYER:-6
M140 S90
;TYPE:SUPPORT
G1 F1350 X93.741 Y170.26 E645.91575
G1 X94.234 Y170.975 E645.98508
G1 X94.339 Y171.114 E645.99898
G1 X94.893 Y171.805 E646.06968
G1 X95.01 Y171.942 E646.08406
G1 X95.641 Y172.622 E646.15811
G1 X96.326 Y173.279 E646.23388
G1 X97.126 Y173.951 E646.31728
G1 X97.273 Y174.065 E646.33212
G1 X97.988 Y174.576 E646.40228
G1 X98.139 Y174.676 E646.41673
G1 X98.573 Y174.941 E646.45733
G1 X93.507 Y169.875 E647.02922
G1 X93.183 Y169.32 E647.08052
G1 X93.106 Y169.178 E647.09341
G1 X92.646 Y168.233 E647.17731
G1 X92.298 Y167.372 E647.25144
G1 X92.242 Y167.21 E647.26512
G1 X92.234 Y167.187 E647.26707
G1 X101.254 Y176.208 E648.28538
G1 X101.829 Y176.404 E648.33387
